!!!!SEGMENT: pl-wtm--r-285-m_moniuszko-stanislaw--vide-humilitatem-meam.krn
!!!cenid: 18xx:2714
!!!COM: Moniuszko, Stanisław
!!!COM-rismid: pe30008351
!!!CDT: 1819/05/05-1872/06/04
!!!CNT: Polish
!!!OTL: Vide humilitatem meam
!!!PDT:
!!!AGN:
!!!SMS-siglum: PL-Wtm
!!!SMS-shelfmark: R 285/M
!!!SMS-shelfwork: W
!!!SMS-variant:
!!!SMS-altvar:
!!!NIFC-rismid: 1001100221
!!!URL-scan: http://repozytorium.nifc.pl/skany/pl-wtm-nut--r285m
!!!ONB-nifc:
**kern	**dynam	**kern	**dynam	**kern	**dynam	**kern	**dynam	**kern	**kern	**dynam	**kern	**text	**dynam	**kern	**text	**dynam	**kern	**text	**dynam	**kern	**text	**text	**text	**dynam
*part9	*part9	*part8	*part8	*part7	*part7	*part6	*part6	*part5	*part5	*part5	*part4	*part4	*part4	*part3	*part3	*part3	*part2	*part2	*part2	*part1	*part1	*part1	*part1	*part1
*staff10	*	*staff9	*	*staff8	*	*staff7	*	*staff6	*staff5	*	*staff4	*staff4	*	*staff3	*staff3	*	*staff2	*staff2	*	*staff1	*staff1	*staff1	*staff1	*
*group2	*group2	*group2	*group2	*group2	*group2	*group2	*group2	*group	*group	*group	*group1	*group1	*group1	*group1	*group1	*group1	*group1	*group1	*group1	*group1	*group1	*group1	*group1	*group1
*Ibass	*	*Iviola	*	*Ivioln	*	*Ivioln	*	*Iorgan	*Iorgan	*	*Iempty	*	*	*Itenor	*	*	*Ialto	*	*	*Isoprn	*	*	*	*
*I"Vcelli CB.	*	*I"Vla.	*	*I"V. 2.	*	*I"V. 1.	*	*I"Organo	*I"Organo	*	*I"[Basso]	*	*	*I"[Tenore]	*	*	*I"[Alto]	*	*	*I"[Soprano]	*	*	*	*
*I'vlc + cb	*	*I'vla	*	*I'vl 2	*	*I'vl 1	*	*I'org	*I'org	*	*I'B	*	*	*I'T	*	*	*I'A	*	*	*I'S	*	*	*	*
*clefF4	*	*clefC3	*	*clefG2	*	*clefG2	*	*clefF4	*clefG2	*	*clefF4	*	*	*clefGv2	*	*	*clefG2	*	*	*clefG2	*	*	*	*
*k[f#c#]	*	*k[f#c#]	*	*k[f#c#]	*	*k[f#c#]	*	*k[f#c#]	*k[f#c#]	*	*k[f#c#]	*	*	*k[f#c#]	*	*	*k[f#c#]	*	*	*k[f#c#]	*	*	*	*
*b:	*	*b:	*	*b:	*	*b:	*	*b:	*b:	*	*b:	*	*	*b:	*	*	*b:	*	*	*b:	*	*	*	*
*M4/4	*	*M4/4	*	*M4/4	*	*M4/4	*	*M4/4	*M4/4	*	*M4/4	*	*	*M4/4	*	*	*M4/4	*	*	*M4/4	*	*	*	*
*met(c)	*	*met(c)	*	*met(c)	*	*met(c)	*	*met(c)	*met(c)	*	*met(c)	*	*	*met(c)	*	*	*met(c)	*	*	*met(c)	*	*	*	*
=1	=1	=1	=1	=1	=1	=1	=1	=1	=1	=1	=1	=1	=1	=1	=1	=1	=1	=1	=1	=1	=1	=1	=1	=1
*all\right	*	*all\right	*	*all\right	*	*all\right	*	*all\right	*all\right	*	*all\right	*	*	*all\right	*	*	*all\right	*	*	*all\right	*	*	*	*
*2\right	*	*2\right	*	*2\right	*	*2\right	*	*2\right	*2\right	*	*2\right	*	*	*2\right	*	*	*2\right	*	*	*2\right	*	*	*	*
*^	*	*	*	*	*	*	*	*	*	*	*	*	*	*	*	*	*	*	*	*	*	*	*	*
!LO:TX:a:i:t=Andante.	!	!	!	!	!	!LO:TX:a:t=P:problem:w źródle krzyżyki na początku taktu zapisane na wysokościach f i cc	!	!	!LO:TX:a:i:t=Andante.	!	!	!	!	!	!	!	!	!	!	!	!LO:TX:a:B:t=Andante	!	!	!	!
!	!	!	!LO:TX:a:t=P:problem:w źródle krzyżyki na początku taktu zapisane na wysokościach F i c	!	!LO:TX:a:t=P:problem:w źródle krzyżyki na początku taktu zapisane na wysokościach f i cc	!	!	!	!	!	!	!	!	!	!	!	!	!	!	!	!	!	!	!	!
2rA	1rEE	.	1r	.	1r	.	1r	.	2r	1r	.	1r	.	.	1r	.	.	1r	.	.	1r	.	.	.	.
8rA	.	.	.	.	.	.	.	.	8r	.	.	.	.	.	.	.	.	.	.	.	.	.	.	.	.
!	!	!	!	!	!	!	!	!	!	!	!LO:DY:rj:t=p.	!	!	!	!	!	!	!	!	!	!	!	!	!	!
(<8AA#X/L	.	.	.	.	.	.	.	.	(>8AA#X/L	.	p	.	.	.	.	.	.	.	.	.	.	.	.	.	.
8BB/	.	.	.	.	.	.	.	.	8BB/	.	.	.	.	.	.	.	.	.	.	.	.	.	.	.	.
8D/J)	.	.	.	.	.	.	.	.	8D/J	.	.	.	.	.	.	.	.	.	.	.	.	.	.	.	.
=2	=2	=2	=2	=2	=2	=2	=2	=2	=2	=2	=2	=2	=2	=2	=2	=2	=2	=2	=2	=2	=2	=2	=2	=2	=2
!LO:TX:a:i:t=Col organ	!	!	!	!	!	!	!	!	!	!	!	!	!	!	!	!	!	!	!	!	!	!	!	!	!
(y>4.F#\yy	1rGG	.	1ryy	.	1ryy	.	1ryy	.	4.F#\	1r	.	1ryy	.	.	1ryy	.	.	1ryy	.	.	1ryy	.	.	.	.
8G\yy	.	.	.	.	.	.	.	.	8G\	.	.	.	.	.	.	.	.	.	.	.	.	.	.	.	.
8B\Lyy	.	.	.	.	.	.	.	.	8B\L	.	.	.	.	.	.	.	.	.	.	.	.	.	.	.	.
8A\yy	.	.	.	.	.	.	.	.	8A\	.	.	.	.	.	.	.	.	.	.	.	.	.	.	.	.
8D\yy	.	.	.	.	.	.	.	.	8D\	.	.	.	.	.	.	.	.	.	.	.	.	.	.	.	.
!	!	!	!	!	!	!	!	!	!	!	!	!	!	!	!LO:TX:b:t=23 a):color=blue	!	!	!	!	!	!	!	!	!	!
8E\Jyy	.	.	.	.	.	.	.	.	8E\J	.	.	.	.	.	.	.	.	.	.	.	.	.	.	.	.
=3	=3	=3	=3	=3	=3	=3	=3	=3	=3	=3	=3	=3	=3	=3	=3	=3	=3	=3	=3	=3	=3	=3	=3	=3	=3
4.F#\yy	1rGG	.	1ryy	.	1ryy	.	1ryy	.	4.F#\	1ryy	.	1ryy	.	.	1ryy	.	.	1ryy	.	.	1ryy	.	.	.	.
8D\yy	.	.	.	.	.	.	.	.	8D\	.	.	.	.	.	.	.	.	.	.	.	.	.	.	.	.
8BB/Lyy	.	.	.	.	.	.	.	.	8BB/L	.	.	.	.	.	.	.	.	.	.	.	.	.	.	.	.
8FF#/yy	.	.	.	.	.	.	.	.	8FF#/	.	.	.	.	.	.	.	.	.	.	.	.	.	.	.	.
8DD/yy	.	.	.	.	.	.	.	.	8DD/	.	.	.	.	.	.	.	.	.	.	.	.	.	.	.	.
8EE/Jyy	.	.	.	.	.	.	.	.	8EE/J	.	.	.	.	.	.	.	.	.	.	.	.	.	.	.	.
=4	=4	=4	=4	=4	=4	=4	=4	=4	=4	=4	=4	=4	=4	=4	=4	=4	=4	=4	=4	=4	=4	=4	=4	=4	=4
4FF#/yy	1rGG	.	1ryy	.	1ryy	.	1ryy	.	4FF#/	1ryy	.	1ryy	.	.	1ryy	.	.	1ryy	.	.	1ryy	.	.	.	.
8.BB/L)yy	.	.	.	.	.	.	.	.	8.BB/L)	.	.	.	.	.	.	.	.	.	.	.	.	.	.	.	.
16D/Jkyy	.	.	.	.	.	.	.	.	16D/Jk	.	.	.	.	.	.	.	.	.	.	.	.	.	.	.	.
4..C#/yy	.	.	.	.	.	.	.	.	4..C#/	.	.	.	.	.	.	.	.	.	.	.	.	.	.	.	.
16BB/yy	.	.	.	.	.	.	.	.	16BB/	.	.	.	.	.	.	.	.	.	.	.	.	.	.	.	.
=5	=5	=5	=5	=5	=5	=5	=5	=5	=5	=5	=5	=5	=5	=5	=5	=5	=5	=5	=5	=5	=5	=5	=5	=5	=5
1F#yy	1rGG	.	1r	.	1r	.	1r	.	1F#	1r	.	1r	.	.	1r	.	.	1r	.	.	1r	.	.	.	.
*v	*v	*	*	*	*	*	*	*	*	*	*	*	*	*	*	*	*	*	*	*	*	*	*	*	*
!!LO:LB:g=original
=6	=6	=6	=6	=6	=6	=6	=6	=6	=6	=6	=6	=6	=6	=6	=6	=6	=6	=6	=6	=6	=6	=6	=6	=6
!	!	!	!	!	!	!	!	!	!	!	!	!	!LO:DY:a:rj	!	!	!LO:DY:a:rj	!	!	!LO:DY:a:rj	!LO:TX:a:t=P:problem:w źródle drugi wers tekstu (rozpoczynający się od "Z częścią") zapisany nad pięciolinią	!	!	!	!LO:DY:a:rj
1r	.	1r	.	1r	.	1r	.	4d 4B\	4b 4f#/	.	4B\	.	p	4d\	.	p	4f#/	.	p	4b\	Vi-	.	Z cze-	p
.	.	.	.	.	.	.	.	4e 4A\	4cc# 4a/	.	8.A\	.	.	8.e\	.	.	8.a/	.	.	8.cc#\	-de	.	-ścią	.
.	.	.	.	.	.	.	.	.	.	.	16A\	.	.	16e\	.	.	16a/	.	.	16cc#\	hu-	.	po-	.
.	.	.	.	.	.	.	.	2d 2A 2D\	2dd 2f#/	.	4.D\	.	.	4.d\	.	.	4.f#/	.	.	4.dd\	-mi-	.	-wstań-	.
.	.	.	.	.	.	.	.	.	.	.	8D\	.	.	8d\	.	.	8f#/	.	.	8a/	-li-	.	-my	.
=7	=7	=7	=7	=7	=7	=7	=7	=7	=7	=7	=7	=7	=7	=7	=7	=7	=7	=7	=7	=7	=7	=7	=7	=7
*	*	*	*	*	*	*	*	*^	*^	*	*	*	*	*	*	*	*	*	*	*	*	*	*	*
*	*	*	*	*	*	*	*	*	*	*	*2\right	*	*	*	*	*	*	*	*	*	*	*	*	*	*	*
1r	.	1r	.	1r	.	1r	.	4d\	4G\	4b/	2g\	.	4G\	.	.	4d\	.	.	4g/	.	.	4b\	-ta-	.	bo	.
.	.	.	.	.	.	.	.	8c#/L	4E\	4cc#/	.	.	4E\	.	.	8c#\L	.	.	4g/	.	.	4cc#\	-tem	.	Zbawca	.
.	.	.	.	.	.	.	.	8B/J	.	.	.	.	.	.	.	8B\J	.	.	.	.	.	.	.	.	.	.
.	.	.	.	.	.	.	.	2A#X/	4.F#\	2f# 2c#/	2rcyy	.	4.F#\	.	.	4.A#X/	.	.	4.c#/	.	.	4.f#/	me-	.	sam	.
.	.	.	.	.	.	.	.	.	8E\	.	.	.	8E\	.	.	8A#/	.	.	8c#/	.	.	8f#/	-am!	.	.	.
*	*	*	*	*	*	*	*	*	*	*v	*v	*	*	*	*	*	*	*	*	*	*	*	*	*	*	*
=8	=8	=8	=8	=8	=8	=8	=8	=8	=8	=8	=8	=8	=8	=8	=8	=8	=8	=8	=8	=8	=8	=8	=8	=8	=8
!	!	!	!	!	!	!	!	!	!	!	!	!	!	!	!	!	!	!	!	!	!LO:TX:b:t=C:color=red	!	!	!	!
1r	.	1r	.	1r	.	1r	.	2.B/	4D\	4f#/	.	4D\	.	.	4B\	.	.	4f#/	.	.	4f#/	vi-	.	ob-	.
.	.	.	.	.	.	.	.	.	8F#\L	8b/L	.	8F#\	.	.	8c#\	.	.	8b\	.	.	8b\	-de	.	-ja-	.
.	.	.	.	.	.	.	.	.	8D\J	8dd/J	.	8B\	.	.	8d\	.	.	8b\	.	.	8dd\	la-	.	-wi	.
.	.	.	.	.	.	.	.	.	4.BB\	4.ff# 4.dd 4.b 4.f#/	.	4d\	.	.	4f#\	.	.	(>4b\	.	.	4.ff#\	-bo-	.	prawd	.
.	.	.	.	.	.	.	.	8F#/L	.	.	.	8B\	.	.	8B\	.	.	8g/)	.	.	.	.	.	.	.
!	!	!	!	!	!	!	!	!	!	!LO:N:vis=4	!	!	!	!	!	!	!	!	!	!	!	!	!	!	!
.	.	.	.	.	.	.	.	8E/J	8EE\	8ee 8g/L	.	8B\	.	.	8B\	.	.	8g/	.	.	16ee\	.	.	Ży-	.
.	.	.	.	.	.	.	.	.	.	.	.	.	.	.	.	.	.	.	.	.	16b\	-rem	.	.	.
=9	=9	=9	=9	=9	=9	=9	=9	=9	=9	=9	=9	=9	=9	=9	=9	=9	=9	=9	=9	=9	=9	=9	=9	=9	=9
1r	.	1r	.	1r	.	1r	.	2F#/	2FF#/	4dd 4f#/	.	2F#\	.	.	4.B\	.	.	(<4f#/	.	.	(>4dd\	me-	.	.	.
.	.	.	.	.	.	.	.	.	.	4cc# 4e/	.	.	.	.	.	.	.	4e/)	.	.	4cc#\)	.	.	-cia	.
.	.	.	.	.	.	.	.	.	.	.	.	.	.	.	8A#X\	.	.	.	.	.	.	.	.	.	.
*	*	*	*	*	*	*	*	*	*	*	*	*	*	*	*2\right	*	*	*	*	*	*2\right	*	*	*	*
.	.	.	.	.	.	.	.	2F#/	2BB/	2b 2d/	.	2BB/	.	.	2B\	.	.	2d/	.	.	2b\	-um.	.	nam	.
*	*	*	*	*	*	*	*	*v	*v	*	*	*	*	*	*	*	*	*	*	*	*	*	*	*	*
!!LO:PB:g=original
=10	=10	=10	=10	=10	=10	=10	=10	=10	=10	=10	=10	=10	=10	=10	=10	=10	=10	=10	=10	=10	=10	=10	=10	=10
!	!	!	!	!	!	!	!	!	!LO:TX:b:i:t=piu	!	!	!	!LO:HP:a	!	!	!LO:HP:a	!	!	!LO:HP:a	!	!	!	!	!LO:HP:a
1r	.	1r	.	1r	.	1r	.	4d 4B\	4b 4f#/	.	4B\	.	<	4d\	.	<	4f#/	.	<	4b\	Re-	.	wy-	<
!	!	!	!	!	!	!	!	!	!	!LO:DY:rj	!	!	!	!	!	!	!	!	!	!	!	!	!	!
.	.	.	.	.	.	.	.	4e 4A\	4cc# 4a/	f	8.A\	.	.	8.e\	.	.	8.a/	.	.	8.cc#\	-spi-	.	-łusz-	.
.	.	.	.	.	.	.	.	.	.	.	16A\	.	.	16e\	.	.	16a/	.	.	16cc#\	-ce	.	-czy	.
.	.	.	.	.	.	.	.	2e 2B 2E\	2ee 2g\	.	4.E\	.	.	4.B\	.	.	4.g/	.	.	4.ee\	i-	.	nam	.
!	!	!	!	!	!	!	!	!	!	!	!	!	!	!	!	!	!	!	!	!	!	!	!	!LO:DY:a
.	.	.	.	.	.	.	.	.	.	.	8E\	.	[	8B\	.	[	8g/	.	[	8ee\	-ni-	.	Za-	[f
=11	=11	=11	=11	=11	=11	=11	=11	=11	=11	=11	=11	=11	=11	=11	=11	=11	=11	=11	=11	=11	=11	=11	=11	=11
*	*	*	*	*	*	*	*	*	*^	*	*	*	*	*	*	*	*	*	*	*	*	*	*	*
!	!	!	!	!	!	!	!	!	!	!	!	!	!	!LO:DY:a:rj	!	!	!LO:DY:a	!	!	!LO:DY:a	!	!	!	!	!
1ryy	.	1r	.	1r	.	1r	.	4cn 4A\	4ee/	2f#\	.	4A\	.	f	4cn\	.	f	4f#/	.	f	4ee\	-mi-	.	-ko-	.
.	.	.	.	.	.	.	.	[>4B\	4dd#X/	.	.	4B\	.	.	4B\	.	.	4f#/	.	.	4dd#X\	-cos	.	-nu	.
.	.	.	.	.	.	.	.	4B] 4E\	4.ee/	2g\	.	4E\	.	.	4B\	.	.	4.g/	.	.	4.ee\	me-	.	treść	.
.	.	.	.	.	.	.	.	4A 4C#X\	.	.	.	4C#X/	.	.	4A\	.	.	.	.	.	.	.	.	.	.
.	.	.	.	.	.	.	.	.	8a/	.	.	.	.	.	.	.	.	8g/	.	.	8a/	-os	.	i	.
*	*	*	*	*	*	*	*	*	*v	*v	*	*	*	*	*	*	*	*	*	*	*	*	*	*	*
=12	=12	=12	=12	=12	=12	=12	=12	=12	=12	=12	=12	=12	=12	=12	=12	=12	=12	=12	=12	=12	=12	=12	=12	=12
*^	*	*	*	*	*	*	*	*	*	*	*	*	*	*	*	*	*	*	*	*	*	*	*	*
!	!	!LO:DY:b:rj	!	!LO:DY:b:rj	!	!LO:DY:b:rj	!	!LO:DY:b:rj	!	!	!	!	!	!	!	!	!	!	!	!	!	!	!	!	!
4D^>/	4D^\	f	4d 4A^</	f	4a 4f#^</	f	4ff#^>\	f	(>4A 4D\	(>4ff# 4a 4f#/	.	4D\	.	.	4G\	.	.	4f#/	.	.	(>4ff#\	quo-	.	przy-	.
!	!	!	!	!	!	!	!	!	!	!	!	!	!	!LO:HP:a	!	!	!LO:HP:a	!	!	!LO:HP:a	!	!	!	!	!LO:HP:a
4GG/	4GG\	.	4d 4B/	.	4g/	.	8dd\L	.	4G 4GG/	8ddL 8b/	.	8G\	.	>	8B\	.	>	8g/	.	>	8dd\)	-ni-	.	.	>
.	.	.	.	.	.	.	8b\J	.	.	8bJ 8g/	.	8G\	.	.	8d\	.	.	8g/	.	.	8b/	-am	.	-kład	.
(>4AA/	4AA\	.	(<4c#/	.	(<4e/	.	4a/	.	4A 4AA/	4a 4c#/	.	4A\	.	.	4c#\	.	.	4e/	.	.	4a/	mul-	.	po-	.
4BB/)	4BB\	.	4B/)	.	8d/L	.	8f#/L	.	8BB/)	8f#L 8d/	.	8B\	.	.	8d\	.	.	8d/	.	]	8f#/	-ti-	.	-da	]
.	.	.	.	.	8B/J)	.	8d/J	.	8r	16dJk 16B/)	.	8B\	.	]	8B\	.	]	8B/	.	.	8d/	-pli-	.	jak	.
.	.	.	.	.	.	.	.	.	.	16r	.	.	.	.	.	.	.	.	.	.	.	.	.	.	.
=13	=13	=13	=13	=13	=13	=13	=13	=13	=13	=13	=13	=13	=13	=13	=13	=13	=13	=13	=13	=13	=13	=13	=13	=13	=13
!	!	!	!	!LO:DY:b	!	!	!	!LO:DY:b:rj	!	!	!	!	!	!LO:DY:a:rj	!	!	!LO:DY:a:rj	!	!	!LO:DY:a:rj	!	!	!	!	!LO:DY:a:rj
(>4EE/	4EE\	.	(<4E/	p	[<2B/	.	(<4g/	p	1r;>	1r;>	.	4E\	.	p	4B\	.	p	4B/	.	p	4g/	-ca-	.	ży-	p
4FF#/)	4FF#\	.	4G/)	.	.	.	4f#/	.	.	.	.	4F#\	.	.	4B\	.	.	4B/	.	.	4f#/	-ti	.	-cie	.
*	*	*	*	*	*	*	*	*	*	*	*	*2\right	*	*	*	*	*	*	*	*	*	*	*	*	*
!	!	!	!	!LO:HP:b:t=dimin	!	!LO:HP:b:t=dimin	!	!LO:HP:b:t=dimin	!	!	!	!	!	!	!	!	!	!	!	!	!	!	!	!	!
2GG;>/	2GG\	.	2G;>/	>	2B;>/]	>	2e;>/)	>	.	.	.	2G;>\	.	.	2B;\	.	.	2B/	.	.	2e;>/	sunt.	.	wieść	.
*v	*v	*	*	*	*	*	*	*	*	*	*	*	*	*	*	*	*	*	*	*	*	*	*	*	*
!!LO:LB:g=original
=14	=14	=14	=14	=14	=14	=14	=14	=14	=14	=14	=14	=14	=14	=14	=14	=14	=14	=14	=14	=14	=14	=14	=14	=14
!	!	!	!	!	!	!	!	!	!LO:TX:t=P:problem:w tym systemie partia organów zapisana między altem a tenorem	!	!	!	!	!	!	!	!	!	!	!	!	!	!	!
!	!	!	!	!	!LO:DY:b:rj	!	!	!	!	!LO:DY:rj:t=pp.	!	!	!LO:DY:b:rj	!	!	!LO:DY:a:rj:t=pp.	!	!	!LO:DY:a:rj:t=pp.	!	!	!	!	!LO:DY:a:rj
1r	.	1r	.	(<4b/	pp	(4b/	pp	[<1B [<1G	2r	pp	4G\	.	pp	4B\	.	pp	4e/	.	pp	4b/	E-	.	przy-	pp
.	.	.	.	8g/L	.	8g/L	.	.	.	.	8G\	.	.	8B\	.	.	8B/	.	.	8g/	-ru-	.	-kład	.
.	.	.	.	8e/J)	.	8e/J)	.	.	.	.	8G\	.	.	8B\	.	.	8e/	.	.	8e/	-e	.	nam	.
.	.	.	.	2e/	.	2e/	.	.	[<2e/	.	2G\	.	.	2B\	.	.	2e/	.	.	2e/	me!	.	da	.
=15	=15	=15	=15	=15	=15	=15	=15	=15	=15	=15	=15	=15	=15	=15	=15	=15	=15	=15	=15	=15	=15	=15	=15	=15
!	!	!	!	!	!	!	!LO:DY:b:rj:t=pp.	!	!	!	!	!	!	!	!	!	!	!	!	!LO:TX:a:i:t=un poco piu	!	!	!	!LO:DY:a
1r;>	.	1r;>	.	4dd\	.	(>4dd\	pp	1B] 1G;>]	1e;>]	.	4G\	.	.	4B\	.	.	4e/	.	.	4dd\	e-	.	jak	f
.	.	.	.	8cc#\L	.	8cc#\L	.	.	.	.	8G\	.	.	8B\	.	.	8e/	.	.	8cc#\	-ru-	.	ży-	.
.	.	.	.	8b\J	.	8b\J)	.	.	.	.	8G\	.	.	8B\	.	.	8e/	.	.	8b\	-e	.	-cie	.
*	*	*	*	*	*	*2\right	*	*	*	*	*	*	*	*	*	*	*	*	*	*	*	*	*	*
.	.	.	.	2b;>\	.	2b;>\	.	.	.	.	2G;>\	.	.	2B;>\	.	.	2e/	.	.	2b;>\	me!	.	wieść	.
=16	=16	=16	=16	=16	=16	=16	=16	=16	=16	=16	=16	=16	=16	=16	=16	=16	=16	=16	=16	=16	=16	=16	=16	=16
*^	*	*	*	*	*	*	*	*	*	*	*	*	*	*	*	*	*	*	*	*	*	*	*	*
!	!	!	!	!	!	!	!	!	!	!	!	!	!	!	!	!	!	!	!	!	!	!	!	!	!LO:DY:a:rj
4B/	[<1F#	.	4B/	.	1r	.	1r	.	[>1F# [<1FF#	4b 4d/	.	[>1F#	vi-	.	4B\	.	.	4d/	.	.	4b/	vi-	.	Z cze-	p
4c#/	.	.	4c#/	.	.	.	.	.	.	4f# 4e/	.	.	.	.	8c#\	.	.	8e/	.	.	8f#/	-de	.	-ścią	.
.	.	.	.	.	.	.	.	.	.	.	.	.	.	.	8c#\	.	.	8e/	.	.	8f#/	hu-	.	po-	.
4.d/	.	.	4.d/	.	.	.	.	.	.	[2f#/	.	.	.	.	4.d\	.	.	4.f#/	.	.	4.f#/	-mi-	.	-wstań-	.
8c#/	.	.	8c#/	.	.	.	.	.	.	.	.	.	.	.	8c#\	.	.	8f#/	.	.	8f#/	-li-	.	-my	.
=17	=17	=17	=17	=17	=17	=17	=17	=17	=17	=17	=17	=17	=17	=17	=17	=17	=17	=17	=17	=17	=17	=17	=17	=17	=17
*	*	*	*	*	*	*	*	*	*	*^	*	*	*	*	*	*	*	*	*	*	*	*	*	*	*
4B/	1F#]	.	4B/	.	1r	.	1r	.	1F#] 1FF#]	[>4g#X 4f#/]	2rcyy	.	2F#\_>	.	.	4B\	.	.	4f#/	.	.	4.g#X/	-ta-	.	Zbaw-	.
4c#/	.	.	4c#/	.	.	.	.	.	.	4g#] 4e#X/	.	.	.	.	.	4c#\	.	.	4e#X/	.	.	.	.	.	.	.
.	.	.	.	.	.	.	.	.	.	.	.	.	.	.	.	.	.	.	.	.	.	8g#/	-tem	.	-ca	.
2F#/	.	.	2F#/	.	.	.	.	.	.	(>4.a#X/	2en 2c#\	.	4.F#\]	.	.	4.F#/	.	.	4.en/	.	.	4.a#X/	me-	.	sam	.
.	.	.	.	.	.	.	.	.	.	8cc#/)	.	.	8F#\	-de	.	8F#/	.	.	8e/	.	.	8cc#\	-am	.	.	.
!!LO:PB:g=original
=18	=18	=18	=18	=18	=18	=18	=18	=18	=18	=18	=18	=18	=18	=18	=18	=18	=18	=18	=18	=18	=18	=18	=18	=18	=18	=18
!	!	!LO:HP:b	!	!LO:HP:b	!	!	!	!	!	!	!	!	!	!	!	!	!	!	!	!	!	!	!	!	!	!
4F#/	(<2B\	<	4F#/	<	4r	.	4r	.	2BB/	(>4cc# 4e/	2rcyy	.	4BB/	.	.	4F#/	.	.	4e/	.	.	4cc#\	vi-	.	ob-	.
8B/L	.	.	8B/L	.	2B^</	.	8r	.	.	8bL 8d/)	.	.	8BB/	.	.	8B\	.	.	8d/	.	.	8b\	-de	.	-ja-	.
!	!	!	!	!	!	!	!	!LO:DY:b	!	!	!	!	!	!	!	!	!	!	!	!	!	!	!	!	!	!
8d/J	.	[	8d/J	[	.	.	8f#/	p	.	[8f#J 8B/	.	.	8BB/	.	.	8d\	.	.	8B/	.	.	8f#/	la-	.	-wi	.
4f#/	4D\	.	4f#\	.	.	.	4a/	.	4D 4DD/	4a 4f#/]	2B\	.	4D\	.	.	4f#\	.	.	4B/	.	.	4a/	-bo-	.	praw-	.
4B/	4E\)	.	4e\	.	4B/	.	4g/	.	4E 4EE/	4g 4e/	.	.	8E\	.	.	8e\	.	.	8B/	.	.	8g/	-rem	.	-dy	.
.	.	.	.	.	.	.	.	.	.	.	.	.	8E\	.	.	8B\	.	.	8B/	.	.	8f#/	.	.	ży-	.
=19	=19	=19	=19	=19	=19	=19	=19	=19	=19	=19	=19	=19	=19	=19	=19	=19	=19	=19	=19	=19	=19	=19	=19	=19	=19	=19
1F#	1F#	.	(>2d\	.	(<2B/	.	[>1f#	.	1F# 1FF#	[>1f#	(<2d 2B\	.	1F#	.	.	2d\	.	.	2B/	.	.	1f#	me-	.	-wo­ta	.
.	.	.	2A#X/)	.	2c#/	.	.	.	.	.	2c# 2A#X\	.	.	.	.	2A#X/	.	.	2c#/	.	.	.	.	.	.	.
=20	=20	=20	=20	=20	=20	=20	=20	=20	=20	=20	=20	=20	=20	=20	=20	=20	=20	=20	=20	=20	=20	=20	=20	=20	=20	=20
1BB;>	1BB	.	1B;>	.	1d;>)	.	1f#;>]	.	1BB 1BBB;>	1f#]	1d 1B;>)	.	1BB;>	.	.	1B;>	.	.	1d;>	.	.	1f#;>	-um.	.	nam.	.
!	!	!	!	!	!	!	!	!	!	!	!	!	!	!	!	!	!	!	!	!	!	!LO:TX:b:t==D:color=red	!	!	!	!
*v	*v	*	*	*	*	*	*	*	*	*v	*v	*	*	*	*	*	*	*	*	*	*	*	*	*	*	*
=21||	=21||	=21||	=21||	=21||	=21||	=21||	=21||	=21||	=21||	=21||	=21||	=21||	=21||	=21||	=21||	=21||	=21||	=21||	=21||	=21||	=21||	=21||	=21||	=21||
*k[cnf#]	*	*k[cnf#]	*	*k[cnf#]	*	*k[cnf#]	*	*k[cnf#]	*k[cnf#]	*	*k[cnf#]	*	*	*k[cnf#]	*	*	*k[cnf#]	*	*	*k[cnf#]	*	*	*	*
*G:	*	*G:	*	*G:	*	*G:	*	*G:	*G:	*	*G:	*	*	*G:	*	*	*G:	*	*	*G:	*	*	*	*
*^	*	*	*	*	*	*	*	*	*	*	*	*	*	*	*	*	*	*	*	*	*	*	*	*
!	!	!	!	!	!	!	!	!	!	!LO:TX:a:t=P:problem:w źródle krzyżyk na początku taktu na wysokości f, a nie ff	!	!	!	!	!	!	!	!	!	!	!	!	!	!	!
!	!	!	!	!	!	!	!LO:TX:a:t=P:problem:w źródle krzyżyk na początku taktu na wysokości f, a nie ff	!	!	!	!	!	!	!	!LO:TX:a:t=P:problem:w źródle krzyżyk na początku taktu na wysokości f, a nie ff	!	!	!LO:TX:a:t=P:problem:w źródle krzyżyk na początku taktu na wysokości f, a nie ff	!	!	!	!LO:TX:a:t=P:problem:w źródle krzyżyk na początku taktu na wysokości f, a nie ff	!	!	!
!	!	!	!LO:TX:a:t=P:problem:w źródle krzyżyk na początku taktu na wysokości F, a nie f	!	!LO:TX:a:t=P:problem:w źródle krzyżyk na początku taktu na wysokości f, a nie ff	!	!	!	!	!	!	!	!	!	!	!	!	!	!	!	!	!	!	!	!
!LO:TX:a:i:t=pizzi	!	!	!	!	!	!	!	!	!	!	!	!	!	!	!	!	!	!	!	!	!LO:TX:a:t=a=:color=red	!	!	!	!
!	!	!	!	!	!	!LO:DY:b:rj	!	!LO:DY:b	!	!LO:TX:a:t=a=:color=red	!	!	!	!	!	!	!	!	!	!	!LO:TX:a:t=P:problem:w źródle wersy rozpoczynające się od "1." i "2." zapisane nad pięciolinią	!	!	!	!
8GG/L	1rGG	.	4d 4G/	p	(<[>2g 2G/	p	2b/	p	(>8GG/L	1r	p	1r	.	.	1r	.	.	4g/	Cu-	.	4b/	Cu-	1. Zlej	2. Nie-	.
8AA/	.	.	.	.	.	.	.	.	8AA/	.	.	.	.	.	.	.	.	.	.	.	.	.	.	.	.
8BB/	.	.	8r	.	.	.	.	.	8BB/	.	.	.	.	.	.	.	.	8g/	-sto-	.	8b/	-sto-	na	-chaj	.
!	!	!	!LO:TX:a:i:t=pizzi	!	!	!	!	!	!	!	!	!	!	!	!	!	!	!	!	!	!	!	!	!	!
8C/J	.	.	8C/	.	.	.	.	.	8C/J	.	.	.	.	.	.	.	.	8g/	-di	.	8b/	-di	nas	na-	.
!	!	!	!	!	!	!	!	!	!	!	!	!	!	!	!	!	!	!LO:TX:a:i:t=g	!	!	!	!	!	!	!
8D/L	.	.	8D/L	.	4g/]	.	2a/	.	8D\L	.	.	.	.	.	.	.	.	4g/	a-	.	4a/	a-	Zbaw-	-pra-	.
8E/	.	.	8E/	.	.	.	.	.	8E\	.	.	.	.	.	.	.	.	.	.	.	.	.	.	.	.
8Fn/	.	.	8Fn/	.	4fn/	.	.	.	8Fn\	.	.	.	.	.	.	.	.	8fn/	-ni-	.	8a/	-ni-	-co	-wi	.
8G/J	.	.	8G/J	.	.	.	.	.	8G\J	.	.	.	.	.	.	.	.	8f/	-mam	.	8a/	-mam	Nau-	za-	.
=22	=22	=22	=22	=22	=22	=22	=22	=22	=22	=22	=22	=22	=22	=22	=22	=22	=22	=22	=22	=22	=22	=22	=22	=22	=22
8A/L	1rGG	.	8A/L	.	4e/)	.	2cc\	.	8A\L	1r	.	1r	.	.	1r	.	.	(<4e/	me-	.	(>2cc\	me-	-kę	-ki-	.
8B/	.	.	8B/	.	.	.	.	.	8B\	.	.	.	.	.	.	.	.	.	.	.	.	.	.	.	.
8c/	.	.	8c/	.	(<2a^</	.	.	.	8c\	.	.	.	.	.	.	.	.	2a/)	.	.	.	.	.	.	.
8d/J	.	.	8d/J	.	.	.	.	.	8d\J	.	.	.	.	.	.	.	.	.	.	.	.	.	.	.	.
8e/L	.	.	8e\L	.	.	.	2b\	.	8e>\L	.	.	.	.	.	.	.	.	.	.	.	4b\)	.	zlej	-pi	.
8f#/	.	.	8f#\	.	.	.	.	.	8f#>\	.	.	.	.	.	.	.	.	.	.	.	.	.	.	.	.
8g/	.	.	8g\	.	4g/)	.	.	.	8g>\	.	.	.	.	.	.	.	.	4g/	-am	.	4b\	-am	ją	już	.
8e/J	.	.	8e\J	.	.	.	.	.	8e>\J)	.	.	.	.	.	.	.	.	.	.	.	.	.	.	.	.
!!LO:LB:g=original
=23	=23	=23	=23	=23	=23	=23	=23	=23	=23	=23	=23	=23	=23	=23	=23	=23	=23	=23	=23	=23	=23	=23	=23	=23	=23
*	*	*	*	*	*	*	*	*	*	*^	*	*	*	*	*	*	*	*	*	*	*	*	*	*	*
8f#\L	1rGG	.	8a\L	.	(>4dd^>\	.	(>4dd^>\	.	1ryy	(>8a/L	8f#\L	.	1r	.	.	1r	.	.	4dd^>\	.	.	4dd^>\	e-	Niech	Bo-	.
8g\J	.	.	8b\J	.	.	.	.	.	.	8b/J)	8g\J	.	.	.	.	.	.	.	.	.	.	.	.	.	.	.
8d\L	.	.	8f#\L	.	8b/L)	.	8b/L)	.	.	(>8f#/L	8d\L	.	.	.	.	.	.	.	8b\	.	.	8b\	-ru-	gnu-	-ga	.
8e\J	.	.	8g\J	.	8b/J	.	8b/J	.	.	8g/J)	8e\J	.	.	.	.	.	.	.	8b\	.	.	8b\	-e	-śne	mi-	.
8B\L	.	.	8d\L	.	2b/	.	2b/	.	.	(>8d/L	8B\L	.	.	.	.	.	.	.	4.b\	.	.	4.b\	me!	ser-	-ło-	.
8c\J	.	.	8e\J	.	.	.	.	.	.	8e/J)	8c\J	.	.	.	.	.	.	.	.	.	.	.	.	.	.	.
8G\L	.	.	8B/L	.	.	.	.	.	.	(>8B/L	(>8G<\L	.	.	.	.	.	.	.	.	.	.	.	.	.	.	.
!	!	!	!	!	!	!LO:DY:b	!	!	!	!	!	!	!	!	!	!	!	!	!	!	!	!	!	!	!	!
8A\J	.	.	8c/J	.	.	pp	.	.	.	8c/J)	8A<\J)	.	.	.	.	.	.	.	8b\	.	.	8b\	.	-ce	-ścią	.
*	*	*	*	*	*	*	*	*	*	*v	*v	*	*	*	*	*	*	*	*	*	*	*	*	*	*	*
=24	=24	=24	=24	=24	=24	=24	=24	=24	=24	=24	=24	=24	=24	=24	=24	=24	=24	=24	=24	=24	=24	=24	=24	=24	=24
!LO:TX:t=P:problem:mixed beam	!	!	!	!	!	!	!	!	!LO:TX:t=P:problem:mixed beam	!	!	!	!	!	!	!	!	!	!	!LO:DY:a	!	!	!	!	!LO:DY:a
!	!	!	!	!	!	!	!	!LO:DY:b	!	!	!	!	!	!	!	!	!	!	!	!LO:DY:a:rj	!	!	!	!	!
8B\L	1rGG	.	8d\L	.	(<4g/	.	(<4g/	pp	8B\L	8d/L	.	1r	.	.	1r	.	.	4g/	.	pp	4g/	e-	od-	i	pp
8c\	.	.	8e\	.	.	.	.	.	8c\	8e/	.	.	.	.	.	.	.	.	.	.	.	.	.	.	.
8d\	.	.	8d\	.	4f#/	.	4f#/	.	8d\	8d/	.	.	.	.	.	.	.	8f#/	.	.	8f#/	-ru-	-ży-	bra-	.
8D/J	.	.	8c\J	.	.	.	.	.	8D/J	8c/J	.	.	.	.	.	.	.	8f#/	.	.	8f#/	-e	-je	-tnich	.
8G/L	.	.	4B/	.	2g/)	.	2g/)	.	8G\L	4B/	.	.	.	.	.	.	.	2g/	.	.	2g/	me!	w niej	dusz	.
8D/	.	.	.	.	.	.	.	.	8D\	.	.	.	.	.	.	.	.	.	.	.	.	.	.	.	.
8BB/	.	.	4d\	.	.	.	.	.	8BB\	4d/	.	.	.	.	.	.	.	.	.	.	.	.	.	.	.
!	!	!LO:DY:b	!	!LO:DY:b	!	!LO:DY:b	!	!LO:DY:b	!	!	!	!	!	!	!	!	!	!	!	!	!	!	!	!	!LO:DY:a
8GG/J	.	ff	.	ff	.	ff	.	ff	8GG\J	.	ff	.	.	.	.	.	.	.	.	.	.	.	.	.	ff
=25	=25	=25	=25	=25	=25	=25	=25	=25	=25	=25	=25	=25	=25	=25	=25	=25	=25	=25	=25	=25	=25	=25	=25	=25	=25
!LO:TX:a:i:t=arco	!	!	!LO:TX:a:i:t=arco	!	!	!	!	!	!	!	!	!	!	!LO:DY:b:rj	!	!	!LO:DY:a:rj	!	!	!LO:DY:a:rj	!	!	!	!	!
8D/L	8D^<\L	.	8D^</L	.	4a 4d^</	.	4dd 4fn 4A^</	.	8DL 8DD/	4dd 4a 4fn 4d/	.	4d\	.	ff	4fn\	.	ff	4a/	.	ff	4dd\	Non	Zlej	Nie-	.
8E/	8E^<\	.	8E^</	.	.	.	.	.	8E 8EE/	.	.	.	.	.	.	.	.	.	.	.	.	.	.	.	.
8Fn/	8Fn^<\	.	8Fn^</	.	8.aL 8.d/	.	8.ddL 8.d/	.	8Fn 8FFn/	8.ddL 8.a 8.f 8.d/	.	8.d\	.	.	8.f\	.	.	8.a/	.	.	8.dd\	e-	na	-chaj	.
8G/J	8G^<\J	.	8G^</J	.	.	.	.	.	8GJ 8GG/	.	.	.	.	.	.	.	.	.	.	.	.	.	.	.	.
.	.	.	.	.	16aJk 16d/	.	16ddJk 16d/	.	.	16ddJk 16a 16f 16d/	.	16d\	.	.	16f\	.	.	16a/	.	.	16dd\	-ru-	nas	.	.
!	!	!	!	!	!	!	!	!	!LO:TX:t=P:problem:mixed beam	!	!	!	!	!	!	!	!	!	!	!	!	!	!	!	!
8A/L	8A^<\L	.	8A^</L	.	4a 4e/	.	4cc 4e/	.	8A/L 8AA/	4cc 4a 4e/	.	4A\	.	.	4e\	.	.	4a/	.	.	4cc\	-bes-	Zbaw-	.	.
8B/	8B^<\	.	8B^</	.	.	.	.	.	8B/ 8BB/	.	.	.	.	.	.	.	.	.	.	.	.	.	.	.	.
8c/	8c^<\	.	8c^</	.	4a 4e/	.	4a 4e/	.	8c\ 8C\	4a 4e/	.	8A\	.	.	8A/	.	.	8a/	.	.	8a/	-cam,	-co	.	.
8A/J	8A^<\J	.	8A^</J	.	.	.	.	.	8A\J 8AA\	.	.	8r	.	.	8r	.	.	8r	.	.	8r	.	.	.	.
=26	=26	=26	=26	=26	=26	=26	=26	=26	=26	=26	=26	=26	=26	=26	=26	=26	=26	=26	=26	=26	=26	=26	=26	=26	=26
8E/L	8E^<\L	.	8E^</L	.	4ee 4b 4g^</	.	4ee 4b 4g^</	.	8EL 8EE/	4ee 4b 4g 4e/	.	4E\	.	.	4B\	.	.	4g/	.	.	4ee\	non	Nau	.	.
8F#/	8F#^<\	.	8F#^</	.	.	.	.	.	8Fn 8FFn/	.	.	.	.	.	.	.	.	.	.	.	.	.	.	.	.
8G/	8G^<\	.	8G^</	.	8.e/L	.	8.eeL 8.cc\	.	8G 8GG/	8.eeL 8.b 8.g 8.e/	.	8.E\	.	.	8B\	.	.	8.g/	.	.	8.ee\	e-	.	.	.
8A/J	8A^<\J	.	8A^</J	.	.	.	.	.	8AJ 8AA/	.	.	.	.	.	8B\	.	.	.	.	.	.	.	.	.	.
.	.	.	.	.	16d/Jk	.	16ee\Jk	.	.	16eeJk 16b 16g 16e/	.	16E\	.	.	.	.	.	16g/	.	.	16ee\	-ru-	.	.	.
8B/L	8B^<\L	.	8B^>\L	.	4f#/	.	4dd\	.	8BL 8BB\	4dd 4b 4f#X/	.	4B\	.	.	4d\	.	.	4f#X/	.	.	4dd\	-bes-	.	.	.
8c#X/	8c#^<\	.	8c#X^>\	.	.	.	.	.	8c#X 8C#X\	.	.	.	.	.	.	.	.	.	.	.	.	.	.	.	.
8d/	8d^<\	.	8d^>\	.	4b\	.	4b\	.	8d 8D\	4b\	.	8B\	.	.	8B\	.	.	8b\	.	.	8b\	-cam	.	.	.
!LO:TX:b:i:t=a due	!	!	!	!	!	!	!	!	!	!	!	!	!	!	!	!	!	!	!	!	!	!	!	!	!
8e/J	8e^<\J	.	8B^\J	.	.	.	.	.	8eJ 8E\	.	.	8r	.	.	8r	.	.	8r	.	.	8r	.	.	.	.
*v	*v	*	*	*	*	*	*	*	*	*	*	*	*	*	*	*	*	*	*	*	*	*	*	*	*
=27	=27	=27	=27	=27	=27	=27	=27	=27	=27	=27	=27	=27	=27	=27	=27	=27	=27	=27	=27	=27	=27	=27	=27	=27
*	*	*	*	*	*	*	*	*	*^	*	*	*	*	*	*	*	*	*	*	*	*	*	*	*
(>8f#^>\L	.	(>8a^>\L	.	(<8a^</L	.	4dd 4d/	.	(>8f#L 8F#\	4dd/	(>8a\L	.	8.d\	.	.	8.d\	.	.	8.dd\	.	.	8.dd\	quo-	.	.	.
8g\J)	.	8b\J)	.	8cc/J)	.	.	.	8gJ 8G\)	.	8b\J)	.	.	.	.	.	.	.	.	.	.	.	.	.	.	.
.	.	.	.	.	.	.	.	.	.	.	.	16d\	.	.	16d\	.	.	16dd\	.	.	16dd\	-ni-	.	.	.
(>8d^>\L	.	8f#^>\L	.	8f#^</L	.	8.ddL 8.d/	.	(>8dL 8D\	4dd/	(>8f#\L	.	8.d\	.	.	8.d\	.	.	8.dd\	.	.	8.dd\	-am	.	.	.
8e\J)	.	8g\J	.	8a/J	.	.	.	8eJ 8E\)	.	8g\J)	.	.	.	.	.	.	.	.	.	.	.	.	.	.	.
.	.	.	.	.	.	16dd/Jk	.	.	.	.	.	16d\	.	.	16d\	.	.	16dd\	.	.	16dd\	spe-	.	.	.
(>8B^>\L	.	(>8g 8d^<\L	.	(>8dd^>\L	.	4gg\	.	(>8BL 8BB\	4gg/	(>8dd\L	.	4G\	.	.	4g\	.	.	4g/	.	.	(>4gg\	-ra-	.	.	.
8c\J)	.	8e\J)	.	8ee\J)	.	.	.	8cJ 8C\)	.	8ee\J)	.	.	.	.	.	.	.	.	.	.	.	.	.	.	.
!	!	!	!	!	!	!	!	!	!LO:TX:t=P:problem:odnośnik literowy: =B	!	!	!	!	!	!	!	!	!	!	!	!	!	!	!	!
(>8G\L	.	(<8B^</L	.	(>8b^>\L	.	4ee\	.	(<8GL 8GG/	4ee/	(>8b\L	.	8G\	.	.	8e\	.	.	8b\	.	.	8ee\)	-vi	.	.	.
!	!	!	!	!	!	!	!	!	!	!	!	!	!	!	!	!	!	!	!	!	!LO:TX:b:t==B:color=red	!	!	!	!
8A\J)	.	8c/J)	.	8cc\J)	.	.	.	8AJ 8AA/)	.	8cc\J)	.	8A\	.	.	8e\	.	.	8cc\	.	.	8ee\	in	.	.	.
!!LO:PB:g=original
=28	=28	=28	=28	=28	=28	=28	=28	=28	=28	=28	=28	=28	=28	=28	=28	=28	=28	=28	=28	=28	=28	=28	=28	=28	=28
*^	*	*	*	*	*	*	*	*	*	*	*	*	*	*	*	*	*	*	*	*	*	*	*	*	*
*	*	*	*2\right	*	*	*	*	*	*	*	*	*	*	*	*	*	*	*	*	*	*	*	*	*	*	*
!	!	!	!	!	!	!	!	!LO:HP:b	!	!	!	!	!	!	!	!	!	!	!	!	!	!	!	!	!	!
(>8F#/L	8F#\L	.	[>2d\	.	(<8a/L	.	4.dd\	>	8F#L 8FF#/	(>4.dd/	8a\L	.	8F#\L	.	.	4.d\	.	.	8a/L	.	.	4.dd\	te,	.	.	.
8D/	8D\	.	.	.	8b/	.	.	.	8D 8DD/	.	8b\J	.	8D\	.	.	.	.	.	8b/	.	.	.	.	.	.	.
8E/	8E\	.	.	.	8g/)	.	.	.	8E 8EE/	.	8g\L	.	8E\J	.	.	.	.	.	8g/J	.	.	.	.	.	.	.
8F#/J)	8F#\J	.	.	.	8a/J	.	8cc\	.	8F#J 8FF#/	8cc/)	8a\J	.	8F#\	.	.	8d\	.	.	8a/	.	.	8cc\	in	.	.	.
!	!	!LO:HP:a	!	!	!	!LO:HP:a	!	!	!	!	!	!	!	!	!	!	!	!	!	!	!	!	!	!	!	!
8G/L	8G\	>	8d\]	.	(<8g/L	>	4b\	]	8GL 8GG/	4b/	4g\	.	[>4G\	.	.	[>4d\	.	.	[<4g/	.	.	[>4b\	te.	.	.	.
8D/	8rEE	.	(>8d\L	.	8d/	.	.	.	(>8D/	.	.	p	.	.	.	.	.	.	.	.	.	.	.	.	.	.
8BB/	4rEE	]	8B\)	.	8B/)	.	4r	.	8BB/	4r	4rcyy	.	8G\]	.	.	8d\]	.	.	8g/]	.	.	8b\]	.	.	.	.
8AA/J	.	.	8A\J	.	8A/J	]	.	.	8AA/J)	.	.	.	8r	.	.	8r	.	.	8r	.	.	8r	.	.	.	.
*	*	*	*	*	*	*	*	*	*	*v	*v	*	*	*	*	*	*	*	*	*	*	*	*	*	*	*
=29	=29	=29	=29	=29	=29	=29	=29	=29	=29	=29	=29	=29	=29	=29	=29	=29	=29	=29	=29	=29	=29	=29	=29	=29	=29
!	!	!	!	!	!	!	!LO:TX:a:t==D:color=red	!	!	!	!	!	!	!	!	!	!	!	!	!	!LO:TX:a:t=a=B.	!	!	!	!
!LO:TX:a:i:t=pizzi	!LO:TX:t=P:problem:takty 29-35 zapisane tylko odnośnikiem a=B.	!	!LO:TX:t=P:problem:takty 29-35 zapisane tylko odnośnikiem a=B.	!	!	!	!LO:TX:t=P:problem:takty 29-35 zapisane tylko odnośnikiem a=B.	!LO:DY:b	!LO:TX:t=P:problem:takty 29-35 zapisane tylko odnośnikiem a=B.	!LO:TX:t=P:problem:takty 29-35 zapisane tylko odnośnikiem a=B.	!	!LO:TX:t=P:problem:takty 29-35 zapisane tylko odnośnikiem a=B.	!	!	!LO:TX:t=P:problem:takty 29-35 zapisane tylko odnośnikiem a=B.	!	!	!LO:TX:t=P:problem:takty 29-35 zapisane tylko odnośnikiem a=B.	!	!	!LO:TX:t=P:problem:takty 29-35 zapisane tylko odnośnikiem a=B.	!	!	!	!
!	!	!	!	!LO:DY:b:rj	!	!LO:DY:b:rj	!	!	!	!	!	!	!	!	!	!	!	!	!	!	!	!	!	!	!
8GG/Lyy	1rGG	.	4dyy 4G/yy	p	(y<[y>2gyy 2G/yy	p	2b/yy	p	(y>8GG/Lyy	1r	p	1ryy	.	.	1ryy	.	.	4g/yy	Cu-	.	4b/yy	Cu-	1. Zlej	2. Nie-	.
8AA/yy	.	.	.	.	.	.	.	.	8AA/yy	.	.	.	.	.	.	.	.	.	.	.	.	.	.	.	.
8BB/yy	.	.	8ryy	.	.	.	.	.	8BB/yy	.	.	.	.	.	.	.	.	8g/yy	-sto-	.	8b/yy	-sto-	na	-chaj	.
!	!	!	!LO:TX:a:i:t=pizzi	!	!	!	!	!	!	!	!	!	!	!	!	!	!	!	!	!	!	!	!	!	!
8C/Jyy	.	.	8C/yy	.	.	.	.	.	8C/Jyy	.	.	.	.	.	.	.	.	8g/yy	-di	.	8b/yy	-di	nas	na-	.
!	!	!	!	!	!	!	!	!	!	!	!	!	!	!	!	!	!	!LO:TX:a:i:t=g	!	!	!	!	!	!	!
8D/Lyy	.	.	8D/Lyy	.	4g/]yy	.	2a/yy	.	8D\Lyy	.	.	.	.	.	.	.	.	4g/yy	a-	.	4a/yy	a-	Zbaw-	-pra-	.
8E/yy	.	.	8E/yy	.	.	.	.	.	8E\yy	.	.	.	.	.	.	.	.	.	.	.	.	.	.	.	.
8Fn/yy	.	.	8Fn/yy	.	4fn/yy	.	.	.	8Fn\yy	.	.	.	.	.	.	.	.	8fn/yy	-ni-	.	8a/yy	-ni-	-co	-wi	.
8G/Jyy	.	.	8G/Jyy	.	.	.	.	.	8G\Jyy	.	.	.	.	.	.	.	.	8f/yy	-mam	.	8a/yy	-mam	Nau-	za-	.
=30	=30	=30	=30	=30	=30	=30	=30	=30	=30	=30	=30	=30	=30	=30	=30	=30	=30	=30	=30	=30	=30	=30	=30	=30	=30
8A/Lyy	1rGG	.	8A/Lyy	.	4e/)yy	.	2cc\yy	.	8A\Lyy	1r	.	1ryy	.	.	1ryy	.	.	(y<4e/yy	me-	.	(y>2cc\yy	me-	-kę	-ki-	.
8B/yy	.	.	8B/yy	.	.	.	.	.	8B\yy	.	.	.	.	.	.	.	.	.	.	.	.	.	.	.	.
8c/yy	.	.	8c/yy	.	(y<2a^</yy	.	.	.	8c\yy	.	.	.	.	.	.	.	.	2a/)yy	.	.	.	.	.	.	.
8d/Jyy	.	.	8d/Jyy	.	.	.	.	.	8d\Jyy	.	.	.	.	.	.	.	.	.	.	.	.	.	.	.	.
8e/Lyy	.	.	8e\Lyy	.	.	.	2b\yy	.	8e>\Lyy	.	.	.	.	.	.	.	.	.	.	.	4b\)yy	.	zlej	-pi	.
8f#/yy	.	.	8f#\yy	.	.	.	.	.	8f#>\yy	.	.	.	.	.	.	.	.	.	.	.	.	.	.	.	.
8g/yy	.	.	8g\yy	.	4g/)yy	.	.	.	8g>\yy	.	.	.	.	.	.	.	.	4g/yy	-am	.	4b\yy	-am	ją	już	.
8e/Jyy	.	.	8e\Jyy	.	.	.	.	.	8e>\J)yy	.	.	.	.	.	.	.	.	.	.	.	.	.	.	.	.
=31	=31	=31	=31	=31	=31	=31	=31	=31	=31	=31	=31	=31	=31	=31	=31	=31	=31	=31	=31	=31	=31	=31	=31	=31	=31
*	*	*	*	*	*	*	*	*	*	*^	*	*	*	*	*	*	*	*	*	*	*	*	*	*	*
8f#\Lyy	1rGG	.	8a\Lyy	.	(y>4dd^>\yy	.	(y>4dd^>\yy	.	1r	(y>8a/Lyy	8f#\Lyy	.	1ryy	.	.	1ryy	.	.	4dd^>\yy	.	.	4dd^>\yy	e-	1. Niech	2 Bo-	.
8g\Jyy	.	.	8b\Jyy	.	.	.	.	.	.	8b/J)yy	8g\Jyy	.	.	.	.	.	.	.	.	.	.	.	.	.	.	.
8d\Lyy	.	.	8f#\Lyy	.	8b/L)yy	.	8b/L)yy	.	.	(y>8f#/Lyy	8d\Lyy	.	.	.	.	.	.	.	8b\yy	.	.	8b\yy	-ru-	gnu(?)	-ga	.
8e\Jyy	.	.	8g\Jyy	.	8b/Jyy	.	8b/Jyy	.	.	8g/J)yy	8e\Jyy	.	.	.	.	.	.	.	8b\yy	.	.	8b\yy	-e	śne(?)	mi-	.
8B\Lyy	.	.	8d\Lyy	.	2b/yy	.	2b/yy	.	.	(y>8d/Lyy	8B\Lyy	.	.	.	.	.	.	.	4.b\yy	.	.	4.b\yy	me!	ser-	-ło-	.
8c\Jyy	.	.	8e\Jyy	.	.	.	.	.	.	8e/J)yy	8c\Jyy	.	.	.	.	.	.	.	.	.	.	.	.	.	.	.
8G\Lyy	.	.	8B/Lyy	.	.	.	.	.	.	(y>8B/Lyy	(y>8G<\Lyy	.	.	.	.	.	.	.	.	.	.	.	.	.	.	.
!	!	!	!	!	!	!LO:DY:b	!	!LO:DY:b	!	!	!	!	!	!	!	!	!	!	!	!	!	!	!	!	!	!
8A\Jyy	.	.	8c/Jyy	.	.	pp	.	pp	.	8c/J)yy	8A<\J)yy	.	.	.	.	.	.	.	8b\yy	.	.	8b\yy	.	-ce	-ścią	.
*	*	*	*	*	*	*	*	*	*	*v	*v	*	*	*	*	*	*	*	*	*	*	*	*	*	*	*
=32	=32	=32	=32	=32	=32	=32	=32	=32	=32	=32	=32	=32	=32	=32	=32	=32	=32	=32	=32	=32	=32	=32	=32	=32	=32
!LO:TX:t=P:problem:mixed beam	!	!	!	!	!	!	!	!	!LO:TX:t=P:problem:mixed beam	!	!	!	!	!	!	!	!	!	!	!LO:DY:a	!	!	!	!	!LO:DY:a
!	!	!	!	!	!	!	!	!	!	!	!	!	!	!	!	!	!	!	!	!LO:DY:a:rj	!	!	!	!	!
8B\Lyy	1rGG	.	8d\Lyy	.	(y<4g/yy	.	(y<4g/yy	.	8B\Lyy	8d/Lyy	.	1ryy	.	.	1ryy	.	.	4g/yy	.	pp	4g/yy	e-	od-	i	pp
8c\yyyy	.	.	8e\yy	.	.	.	.	.	8c\yy	8e/yy	.	.	.	.	.	.	.	.	.	.	.	.	.	.	.
8d\yy	.	.	8d\yy	.	4f#/yy	.	4f#/yy	.	8d\yy	8d/yy	.	.	.	.	.	.	.	8f#/yy	.	.	8f#/yy	-ru-	-ży-	bra-	.
8D/Jyy	.	.	8c\Jyy	.	.	.	.	.	8D/Jyy	8c/Jyy	.	.	.	.	.	.	.	8f#/yy	.	.	8f#/yy	-e	-je	-tnich	.
8G/Lyy	.	.	4B/yy	.	2g/)yy	.	2g/)yy	.	8G\Lyy	4B/yy	.	.	.	.	.	.	.	2g/yy	.	.	2g/yy	me!	w niej	dusz	.
8D/yy	.	.	.	.	.	.	.	.	8D\yy	.	.	.	.	.	.	.	.	.	.	.	.	.	.	.	.
8BB/yy	.	.	4d\yy	.	.	.	.	.	8BB\yy	4d/yy	.	.	.	.	.	.	.	.	.	.	.	.	.	.	.
!	!	!LO:DY:b	!	!LO:DY:b	!	!LO:DY:b	!	!LO:DY:b	!	!	!	!	!	!	!	!	!	!	!	!	!	!	!	!	!LO:DY:a
8GG/Jyy	.	ff	.	ff	.	ff	.	ff	8GG\Jyy	.	ff	.	.	.	.	.	.	.	.	.	.	.	.	.	ff
=33	=33	=33	=33	=33	=33	=33	=33	=33	=33	=33	=33	=33	=33	=33	=33	=33	=33	=33	=33	=33	=33	=33	=33	=33	=33
!LO:TX:a:i:t=arco	!	!	!	!	!	!	!	!	!	!	!	!	!	!LO:DY:b:rj	!	!	!LO:DY:a:rj	!	!	!LO:DY:a:rj	!	!	!	!	!
8D/Lyy	8D^<\Lyy	.	8D^</Lyy	ff	4ayy 4d^</yy	.	4ddyy 4fnyy 4A^</yy	.	8DLyy 8DD/yy	4ddyy 4ayy 4fnyy 4d/yy	.	4d\yy	.	ff	4fn\yy	.	ff	4a/yy	.	ff	4dd\yy	Non	Zlej	Nie-	.
8E/yy	8E^<\yy	.	8E^</yy	.	.	.	.	.	8Eyy 8EE/yy	.	.	.	.	.	.	.	.	.	.	.	.	.	.	.	.
8Fn/yy	8Fn^<\yy	.	8Fn^</yy	.	8.aLyyyy 8.d/yy	.	8.ddLyy 8.d/yy	.	8Fnyy 8FFn/yy	8.ddLyy 8.ayy 8.fyy 8.d/yy	.	8.d\yy	.	.	8.f\yy	.	.	8.a/yy	.	.	8.dd\yy	e-	na	-chaj	.
8G/Jyy	8G^<\Jyy	.	8G^</Jyy	.	.	.	.	.	8GJyy 8GG/yy	.	.	.	.	.	.	.	.	.	.	.	.	.	.	.	.
.	.	.	.	.	16aJkyy 16d/yy	.	16ddJkyy 16d/yy	.	.	16ddJkyy 16ayy 16fyy 16d/yy	.	16d\yy	.	.	16f\yy	.	.	16a/yy	.	.	16dd\yy	-ru-	nas	.	.
!	!	!	!	!	!	!	!	!	!LO:TX:t=P:problem:mixed beam	!	!	!	!	!	!	!	!	!	!	!	!	!	!	!	!
8A/Lyy	8A^<\Lyy	.	8A^</Lyy	.	4ayy 4e/yy	.	4ccyy 4e/yy	.	8A/Lyy 8AA/yy	4ccyy 4ayy 4e/yy	.	4A\yy	.	.	4e\yy	.	.	4a/yy	.	.	4cc\yy	-bes-	Zbaw-	.	.
8B/yy	8B^<\yy	.	8B^</yy	.	.	.	.	.	8B/yy 8BB/yy	.	.	.	.	.	.	.	.	.	.	.	.	.	.	.	.
8c/yy	8c^<\yy	.	8c^</yy	.	4ayy 4e/yy	.	4ayy 4e/yy	.	8c\yy 8C\yy	4ayy 4e/yy	.	8A\yy	.	.	8A/yy	.	.	8a/yy	.	.	8a/yy	-cam,	-co	.	.
8A/Jyy	8A^<\Jyy	.	8A^</Jyy	.	.	.	.	.	8A\Jyy 8AA\yy	.	.	8ryy	.	.	8ryy	.	.	8ryy	.	.	8ryy	.	.	.	.
=34	=34	=34	=34	=34	=34	=34	=34	=34	=34	=34	=34	=34	=34	=34	=34	=34	=34	=34	=34	=34	=34	=34	=34	=34	=34
8E/Lyy	8E^<\Lyy	.	8E^</Lyy	.	4eeyy 4byy 4g^</yy	.	4eeyy 4byy 4g^</yy	.	8ELyy 8EE/yy	4eeyy 4byy 4gyy 4e/yy	.	4E\yy	.	.	4B\yy	.	.	4g/yy	.	.	4ee\yy	non	Nau	.	.
8F#/yy	8F#^<\yy	.	8F#^</yy	.	.	.	.	.	8Fnyy 8FFn/yy	.	.	.	.	.	.	.	.	.	.	.	.	.	.	.	.
8G/yy	8G^<\yy	.	8G^</yy	.	8.e/Lyy	.	8.eeLyy 8.cc\yy	.	8Gyy 8GG/yy	8.eeLyy 8.byy 8.gyy 8.e/yy	.	8.E\yy	.	.	8B\yy	.	.	8.g/yy	.	.	8.ee\yy	e-	.	.	.
8A/Jyy	8A^<\Jyy	.	8A^</Jyy	.	.	.	.	.	8AJyy 8AA/yy	.	.	.	.	.	8B\yy	.	.	.	.	.	.	.	.	.	.
.	.	.	.	.	16d/Jkyy	.	16ee\Jkyy	.	.	16eeJkyy 16byy 16gyy 16e/yy	.	16E\yy	.	.	.	.	.	16g/yy	.	.	16ee\yy	-ru-	.	.	.
8B/Lyy	8B^<\Lyy	.	8B^>\Lyy	.	4f#/yy	.	4dd\yy	.	8BLyy 8BB\yy	4ddyy 4byy 4f#X/yy	.	4B\yy	.	.	4d\yy	.	.	4f#X/yy	.	.	4dd\yy	-bes-	.	.	.
8c#X/yy	8c#^<\yy	.	8c#X^>\yy	.	.	.	.	.	8c#Xyy 8C#X\yy	.	.	.	.	.	.	.	.	.	.	.	.	.	.	.	.
8d/yy	8d^<\yy	.	8d^>\yy	.	4b\yy	.	4b\yy	.	8dyy 8D\yy	4b\yy	.	8B\yy	.	.	8B\yy	.	.	8b\yy	.	.	8b\yy	-cam	.	.	.
!LO:TX:b:i:t=a due	!	!	!	!	!	!	!	!	!	!	!	!	!	!	!	!	!	!	!	!	!	!	!	!	!
8e/Jyy	8e^<\Jyy	.	8B^>\Jyy	.	.	.	.	.	8eJyy 8E\yy	.	.	8ryy	.	.	8ryy	.	.	8ryy	.	.	8ryy	.	.	.	.
*v	*v	*	*	*	*	*	*	*	*	*	*	*	*	*	*	*	*	*	*	*	*	*	*	*	*
=35	=35	=35	=35	=35	=35	=35	=35	=35	=35	=35	=35	=35	=35	=35	=35	=35	=35	=35	=35	=35	=35	=35	=35	=35
*	*	*	*	*	*	*	*	*	*^	*	*	*	*	*	*	*	*	*	*	*	*	*	*	*
(y>8f#^>\Lyy	.	(y>8a^>\Lyy	.	(y<8a^</Lyy	.	4ddyy 4d/yy	.	(y>8f#Lyy 8F#\yy	4dd/yy	(y>8a\Lyy	.	8.d\yy	.	.	8.d\yy	.	.	8.dd\yy	.	.	8.dd\yy	quo-	.	.	.
8g\J)yy	.	8b\J)yy	.	8cc/J)yy	.	.	.	8gJyy 8G\)yy	.	8b\J)yy	.	.	.	.	.	.	.	.	.	.	.	.	.	.	.
.	.	.	.	.	.	.	.	.	.	.	.	16d\yy	.	.	16d\yy	.	.	16dd\yy	.	.	16dd\yy	-ni-	.	.	.
(y>8d^>\Lyy	.	8f#^>\Lyy	.	8f#^</Lyy	.	8.ddLyy 8.d/yy	.	(y>8dLyy 8D\yy	4dd/yy	(y>8f#\Lyy	.	8.d\yy	.	.	8.d\yy	.	.	8.dd\yy	.	.	8.dd\yy	-am	.	.	.
8e\J)yy	.	8g\Jyy	.	8a/Jyy	.	.	.	8eJyy 8E\)yy	.	8g\J)yy	.	.	.	.	.	.	.	.	.	.	.	.	.	.	.
.	.	.	.	.	.	16dd/Jkyy	.	.	.	.	.	16d\yy	.	.	16d\yy	.	.	16dd\yy	.	.	16dd\yy	spe-	.	.	.
(y>8B^>\Lyy	.	(y>8gyy 8d^<\Lyy	.	(y>8dd^>\Lyy	.	4gg\yy	.	(y>8BLyy 8BB\yy	4gg/yy	(y>8dd\Lyy	.	4G\yy	.	.	4g\yy	.	.	4g/yy	.	.	(y>4gg\yy	-ra-	.	.	.
8c\J)yy	.	8e\J)yy	.	8ee\J)yy	.	.	.	8cJyy 8C\)yy	.	8ee\J)yy	.	.	.	.	.	.	.	.	.	.	.	.	.	.	.
(y>8G\Lyy	.	(y<8B^</Lyy	.	(y>8b^>\Lyy	.	4ee\yy	.	(y<8GLyy 8GG/yy	4ee/yy	(y>8b\Lyy	.	8G\yy	.	.	8e\yy	.	.	8b\yy	.	.	8ee\)yy	-vi	.	.	.
8A\J)yy	.	8c/J)yy	.	8cc\J)yy	.	.	.	8AJyy 8AA/)yy	.	8cc\J)yy	.	8A\yy	.	.	8e\yy	.	.	8cc\yy	.	.	8ee\yy	in	.	.	.
=36	=36	=36	=36	=36	=36	=36	=36	=36	=36	=36	=36	=36	=36	=36	=36	=36	=36	=36	=36	=36	=36	=36	=36	=36	=36
*^	*	*	*	*	*	*	*	*	*	*	*	*	*	*	*	*	*	*	*	*	*	*	*	*	*
(>8F#/L	8F#\L	.	2d\	.	(<8a/L	.	4.dd\	.	(<8F#L 8FF#/	4.dd/	8a\L	.	8F#\L	.	.	4.d\	.	.	8a/L	.	.	4.dd\	te,	.	.	.
8D/	8D\	.	.	.	8b/	.	.	.	8D 8DD/	.	8f#\	.	8D\	.	.	.	.	.	8b/	.	.	.	.	.	.	.
8E/	8E\	.	.	.	8g/)	.	.	.	8E 8EE/	.	8g\	.	8E\J	.	.	.	.	.	8g/J	.	.	.	.	.	.	.
8F#/J)	8F#\J	.	.	.	8a/J	.	8cc\	.	8F#J 8FF#/	8cc/	8a\J	.	8F#\	.	.	8d\	.	.	8a/	.	.	8cc\	in	.	.	.
!	!	!	!	!	!	!	!	!	!	!LO:N:vis=1	!LO:N:vis=1	!	!	!	!	!	!	!	!	!	!	!	!	!	!	!
8G^>/L	8G\L	.	8r	.	8g/L	.	4b\	.	8GL 8GG/)	2b/	2g/	.	[>4G\	.	.	[4d\	.	.	[<4g/	.	.	[>4b\	te.	.	.	.
8D^>/	8D\	.	8d^>\L	.	8d^</	.	.	.	8D/	.	.	.	.	.	.	.	.	.	.	.	.	.	.	.	.	.
8BB^>/	8BB\	.	8B^>\	.	8B^</	.	4r	.	8BB/	.	.	.	8G\]	.	.	8d\]	.	.	8g/]	.	.	8b\]	.	.	.	.
!	!	!LO:DY:b	!	!	!	!	!	!	!	!	!	!	!	!	!	!	!	!	!	!	!	!	!	!	!	!
8GG^>/J	8GG\J	ff	8G^>\J	.	8G^</J	.	.	.	8AA/J	.	.	.	8r	.	.	8r	.	.	8r	.	.	8r	.	.	.	.
*v	*v	*	*	*	*	*	*	*	*	*v	*v	*	*	*	*	*	*	*	*	*	*	*	*	*	*	*
=37	=37	=37	=37	=37	=37	=37	=37	=37	=37	=37	=37	=37	=37	=37	=37	=37	=37	=37	=37	=37	=37	=37	=37	=37
!	!	!	!	!	!	!	!LO:DY:b:rj	!	!	!LO:DY:rj	!	!	!LO:DY:a:rj	!	!	!LO:DY:a:rj	!	!	!LO:DY:a:rj	!	!	!	!	!LO:DY:a:rj
4C/	.	4e 4A 4C/	.	4a 4e^</	.	4ee 4a^>\	ff	4C 4CC/	4ee 4g 4e/	ff	4c\	.	f	4e\	.	f	4g/	.	f	4ee\	E-	.	.	f
8.C/L	.	8.C/L	.	8.e/L	.	8.cc\L	.	8.CL 8.CC/	8.ccL 8.g 8.e/	.	8.c\	.	.	8.e\	.	.	8.g/	.	.	8.cc\	-ru-	.	.	.
16C/Jk	.	16C/Jk	.	16e/Jk	.	16b\Jk	.	16CJk 16CC/	16bJk 16g 16e/	.	16c\	.	.	16e\	.	.	16g/	.	.	16b\	-e	.	.	.
!	!LO:HP:b	!	!LO:HP:a	!	!LO:HP:b	!	!LO:HP:b	!	!	!	!	!	!	!	!	!	!	!	!	!	!LO:HP:a	!	!	!LO:HP:a
[>2c;<\	>]	2c;>\	>]	2e^<;>/	>]	2a;>/	>]	2c [<2C;>\	4.a 4.g 4.e;>/	.	2c;>\	.	.	2e;>\	.	.	2g;>/	.	>]	2a;>/	me!	.	.	>]
!	!	!	!	!	!	!	!	!	!	!	!	!	!	!	!	!	!	!	!	!	!	!	!	!LO:DY:a
.	.	.	.	.	.	.	.	.	8r	.	.	.	.	.	.	.	.	.	.	.	.	.	.	p
=38	=38	=38	=38	=38	=38	=38	=38	=38	=38	=38	=38	=38	=38	=38	=38	=38	=38	=38	=38	=38	=38	=38	=38	=38
!LO:TX:b:i:t=ralent	!	!	!	!LO:TX:b:i:t=ralent	!	!LO:TX:b:i:t=ralent	!	!	!	!	!	!	!	!	!	!	!	!	!	!	!	!	!	!
!	!	!	!LO:DY:b:rj	!	!LO:DY:b:rj	!	!LO:DY:b:rj	!	!	!	!	!	!LO:DY:a:rj	!	!	!LO:DY:a:rj	!	!	!LO:DY:a:rj	!	!	!	!	!
(>4c\]	p	(>4.c\	p	(<2e/	p	1a;>	p	4C/]	1r;>	.	4c\	.	p	4e\	.	p	4e/	.	p	4a\	e-	.	.	.
!	!	!	!	!	!	!	!	!	!	!	!LO:TX:a:i:t=ralent	!	!	!LO:TX:a:i:t=ralent	!	!	!LO:TX:a:i:t=ralent	!	!	!LO:TX:a:i:t=ralent	!	!	!	!
8A\L	.	.	.	.	.	.	.	4r	.	.	8A\	.	.	8c\	.	.	8e/	.	.	8a\	-ru-	.	.	.
8G\J)	.	8B\)	.	.	.	.	.	.	.	.	8G\	.	.	8B\	.	.	8e/	.	.	8a\	-e	.	.	.
2F#;>\	.	2A;>\	.	2d;>/)	.	.	.	2r;>	.	.	2F#;\	.	.	2A;>\	.	.	2d/	.	.	2dd;>\	me!	.	.	.
!!LO:LB:g=original
=39	=39	=39	=39	=39	=39	=39	=39	=39	=39	=39	=39	=39	=39	=39	=39	=39	=39	=39	=39	=39	=39	=39	=39	=39
*k[f#c#]	*	*k[f#c#]	*	*k[f#c#]	*	*k[f#c#]	*	*k[f#c#]	*k[f#c#]	*	*k[f#c#]	*	*	*k[f#c#]	*	*	*k[f#c#]	*	*	*k[f#c#]	*	*	*	*
*D:	*	*D:	*	*D:	*	*D:	*	*D:	*D:	*	*D:	*	*	*D:	*	*	*D:	*	*	*D:	*	*	*	*
*^	*	*	*	*	*	*	*	*^	*^	*	*	*	*	*	*	*	*	*	*	*	*	*	*	*
!	!	!	!	!	!	!	!LO:TX:a:i:t=a tempo 1mo	!	!	!	!	!	!	!	!	!	!	!	!	!	!	!	!LO:TX:a:i:t=a tempo 1mo	!	!	!	!
!	!	!	!LO:TX:a:t=P:problem:w źródle krzyżyki na początku taktu zapisane na wysokościach F i c	!	!	!	!LO:TX:a:t=P:problem:w źródle krzyżyki na początku taktu zapisane na wysokościach f i cc	!	!	!	!	!	!LO:DY:rj:t=pp.	!	!	!LO:DY:a:rj	!LO:TX:a:t=P:problem:w źródle wysokość znaków na początku taktu to f# i cc#	!	!LO:DY:a:rj	!LO:TX:a:t=P:problem:w źródle wysokość znaków na początku taktu to f# i cc#	!	!	!LO:TX:a:t=P:problem:w źródle wysokość znaków na początku taktu to f# i cc#	!	!	!	!
8G/	8G\	.	8G/	.	8d/	.	8b/	.	4d/	[<1G	4b/	1g	pp	[>1G	vi-	pp	4d\	vi-	pp	4g/	vi-	pp	4b\	Vi-	.	.	pp
8r	8rEEyy	.	8r	.	8r	.	8r	.	.	.	.	.	.	.	.	.	.	.	.	.	.	.	.	.	.	.	.
*	*	*	*	*	*	*	*	*	*	*	*	*	*	*	*	*	*	*	*	*	*ij	*	*	*	*	*	*
4r	4rEEyy	.	4r	.	4r	.	4r	.	4A#X/	.	4cc#/	.	.	.	.	.	8.A#X/	-de	.	8.g/	-de	.	8.cc#\	-de	.	.	.
*	*	*	*	*	*	*	*	*	*	*	*	*	*	*	*	*	*	*ij	*	*	*	*	*	*	*	*	*
.	.	.	.	.	.	.	.	.	.	.	.	.	.	.	.	.	16A#/	hu-	.	16g/	hu-	.	16cc#\	hu-	.	.	.
2r	2rEEyy	.	2r	.	2r	.	2r	.	4.B/	.	4.dd/	.	.	.	.	.	4.B\	-mi-	.	4.g/	-mi-	.	4.dd\	-mi-	.	.	.
.	.	.	.	.	.	.	.	.	8e/	.	8cc#/	.	.	.	.	.	8e\	-li-	.	8g/	-li-	.	8cc#\	-li-	.	.	.
*v	*v	*	*	*	*	*	*	*	*	*	*	*	*	*	*	*	*	*	*	*	*	*	*	*	*	*	*
=40	=40	=40	=40	=40	=40	=40	=40	=40	=40	=40	=40	=40	=40	=40	=40	=40	=40	=40	=40	=40	=40	=40	=40	=40	=40	=40
1r	.	1r	.	1r	.	1r	.	4d/	4G\]	4b/	2g\	.	4G\]	.	.	(>4d\	-ta-	.	4g/	-ta-	.	4b\	-ta-	.	.	.
.	.	.	.	.	.	.	.	8.c#/L	4E\	4cc#/	.	.	4E\	-de,	.	8.c#\)	.	.	4g/	-tem	.	4cc#\	-tem	.	.	.
.	.	.	.	.	.	.	.	16B/Jk	.	.	.	.	.	.	.	16B\	-tem	.	.	.	.	.	.	.	.	.
.	.	.	.	.	.	.	.	2A#X/	4.F#\	2f#/	2c#\	.	4.F#\	vi-	.	4A#X/	me-	.	4.c#/	me-	.	4.f#/	me-	.	.	.
.	.	.	.	.	.	.	.	.	.	.	.	.	.	.	.	4A#/	-am	.	.	.	.	.	.	.	.	.
*	*	*	*	*	*	*	*	*	*	*	*	*	*	*	*	*	*Xij	*	*	*	*	*	*	*	*	*
.	.	.	.	.	.	.	.	.	8E\	.	.	.	8E\	-de	.	.	.	.	8c#/	-am	.	8f#/	-am	.	.	.
*	*	*	*	*	*	*	*	*	*	*	*	*	*	*	*	*	*	*	*	*Xij	*	*	*	*	*	*
*	*	*	*	*	*	*	*	*	*	*v	*v	*	*	*	*	*	*	*	*	*	*	*	*	*	*	*
=41	=41	=41	=41	=41	=41	=41	=41	=41	=41	=41	=41	=41	=41	=41	=41	=41	=41	=41	=41	=41	=41	=41	=41	=41	=41
!	!	!	!	!	!	!	!	!	!	!	!	!	!	!	!	!	!	!	!	!	!LO:TX:a:t=C=D.	!	!	!	!
!LO:TX:t=P:problem:takty 41-53 zapisane tylko odnośnikiem C=D.	!	!LO:TX:t=P:problem:takty 41-53 zapisane tylko odnośnikiem C=D.	!	!LO:TX:t=P:problem:takty 41-53 zapisane tylko odnośnikiem C=D.	!	!LO:TX:t=P:problem:takty 41-53 zapisane tylko odnośnikiem C=D.	!	!	!LO:TX:t=P:problem:takty 41-53 zapisane tylko odnośnikiem C=D.	!LO:TX:t=P:problem:takty 41-53 zapisane tylko odnośnikiem C=D.	!	!LO:TX:t=P:problem:takty 41-53 zapisane tylko odnośnikiem C=D.	!	!	!LO:TX:t=P:problem:takty 41-53 zapisane tylko odnośnikiem C=D.	!	!	!LO:TX:t=P:problem:takty 41-53 zapisane tylko odnośnikiem C=D.	!	!	!LO:TX:t=P:problem:takty 41-53 zapisane tylko odnośnikiem C=D.	!	!	!	!
1ryy	.	1ryy	.	1ryy	.	1ryy	.	2.B/yy	4D\yy	4f#/yy	.	4D\yy	.	.	4B\yy	.	.	4f#/yy	.	.	4f#/yy	vi-	.	ob-	.
.	.	.	.	.	.	.	.	.	8F#\Lyy	8b/Lyy	.	8F#\yy	.	.	8c#\yy	.	.	8b\yy	.	.	8b\yy	-de	.	-ja-	.
.	.	.	.	.	.	.	.	.	8D\Jyy	8dd/Jyy	.	8B\yy	.	.	8d\yy	.	.	8b\yy	.	.	8dd\yy	la-	.	-wi	.
.	.	.	.	.	.	.	.	.	4.BB\yy	4.ff#yy 4.ddyy 4.byy 4.f#/yy	.	4d\yy	.	.	4f#\yy	.	.	(y>4b\yy	.	.	4.ff#\yy	-bo-	.	prawd	.
.	.	.	.	.	.	.	.	8F#/Lyy	.	.	.	8B\yy	.	.	8B\yy	.	.	8g/)yy	.	.	.	.	.	.	.
.	.	.	.	.	.	.	.	8E/Jyy	8EE\yy	8eeyy 8g/yy	.	8B\yy	.	.	8B\yy	.	.	8g/yy	.	.	16ee\yy	.	.	Ży-	.
.	.	.	.	.	.	.	.	.	.	.	.	.	.	.	.	.	.	.	.	.	16b\yy	-rem	.	.	.
=42	=42	=42	=42	=42	=42	=42	=42	=42	=42	=42	=42	=42	=42	=42	=42	=42	=42	=42	=42	=42	=42	=42	=42	=42	=42
1ryy	.	1ryy	.	1ryy	.	1ryy	.	2F#/yy	2FF#/yy	4ddyy 4f#/yy	.	2F#\yy	.	.	4.B\yy	.	.	(y<4f#/yy	.	.	(y>4dd\yy	me-	.	.	.
.	.	.	.	.	.	.	.	.	.	4cc#yy 4e/yy	.	.	.	.	.	.	.	4e/)yy	.	.	4cc#\)yy	.	.	-cia	.
.	.	.	.	.	.	.	.	.	.	.	.	.	.	.	8A#X\yy	.	.	.	.	.	.	.	.	.	.
.	.	.	.	.	.	.	.	2F#/yy	2BB/yy	2byy 2d/yy	.	2BB/yy	.	.	2B\yy	.	.	2d/yy	.	.	2b\yy	-um.	.	nam	.
*	*	*	*	*	*	*	*	*v	*v	*	*	*	*	*	*	*	*	*	*	*	*	*	*	*	*
=43	=43	=43	=43	=43	=43	=43	=43	=43	=43	=43	=43	=43	=43	=43	=43	=43	=43	=43	=43	=43	=43	=43	=43	=43
!	!	!	!	!	!	!	!	!	!LO:TX:b:i:t=piu	!	!	!	!LO:HP:a	!	!	!LO:HP:a	!	!	!LO:HP:a	!	!	!	!	!LO:HP:a
1ryy	.	1ryy	.	1ryy	.	1ryy	.	4dyy 4B\yy	4byy 4f#/yy	f	4B\yy	.	<	4d\yy	.	<	4f#/yy	.	<	4b\yy	Re-	.	wy-	<
.	.	.	.	.	.	.	.	4eyy 4A\yy	4cc#yy 4a/yy	.	8.A\yy	.	.	8.e\yy	.	.	8.a/yy	.	.	8.cc#\yy	-spi-	.	-łusz-	.
.	.	.	.	.	.	.	.	.	.	.	16A\yy	.	.	16e\yy	.	.	16a/yy	.	.	16cc#\yy	-ce	.	-czy	.
.	.	.	.	.	.	.	.	2eyy 2Byy 2E\yy	2eeyy 2g\yy	.	4.E\yy	.	.	4.B\yy	.	.	4.g/yy	.	.	4.ee\yy	i-	.	nam	.
!	!	!	!	!	!	!	!	!	!	!	!	!	!	!	!	!	!	!	!	!	!	!	!	!LO:DY:a
.	.	.	.	.	.	.	.	.	.	.	8E\yy	.	[	8B\yy	.	[	8g/yy	.	[	8ee\yy	-ni-	.	Za-	[f
=44	=44	=44	=44	=44	=44	=44	=44	=44	=44	=44	=44	=44	=44	=44	=44	=44	=44	=44	=44	=44	=44	=44	=44	=44
*	*	*	*	*	*	*	*	*	*^	*	*	*	*	*	*	*	*	*	*	*	*	*	*	*
!	!	!	!	!	!	!	!	!	!	!	!	!	!	!LO:DY:a:rj	!	!	!LO:DY:a:rj	!	!	!LO:DY:a:rj	!	!	!	!	!
1ryy	.	1ryy	.	1ryy	.	1ryy	.	4cnyy 4A\yy	4ee/yy	2f#\yy	.	4A\yy	.	f	4cn\yy	.	f	4f#/yy	.	f	4ee\yy	-mi-	.	-ko-	.
.	.	.	.	.	.	.	.	[>4B\yy	4dd#X/yy	.	.	4B\yy	.	.	4B\yy	.	.	4f#/yy	.	.	4dd#X\yy	-cos	.	-nu	.
.	.	.	.	.	.	.	.	4B]yy 4E\yy	4.ee/yy	2g\yy	.	4E\yy	.	.	4B\yy	.	.	4.g/yy	.	.	4.ee\yy	me-	.	treść	.
.	.	.	.	.	.	.	.	4Ayy 4C#X\yy	.	.	.	4C#X/yy	.	.	4A\yy	.	.	.	.	.	.	.	.	.	.
!	!LO:DY:b:rj	!	!LO:DY:b:rj	!	!LO:DY:b:rj	!	!LO:DY:b:rj	!	!	!	!	!	!	!	!	!	!	!	!	!	!	!	!	!	!
.	f	.	f	.	f	.	f	.	8a/yy	.	.	.	.	.	.	.	.	8g/yy	.	.	8a/yy	-os	.	i	.
*	*	*	*	*	*	*	*	*	*v	*v	*	*	*	*	*	*	*	*	*	*	*	*	*	*	*
=45	=45	=45	=45	=45	=45	=45	=45	=45	=45	=45	=45	=45	=45	=45	=45	=45	=45	=45	=45	=45	=45	=45	=45	=45
*^	*	*	*	*	*	*	*	*	*	*	*	*	*	*	*	*	*	*	*	*	*	*	*	*
4D^>/yy	4D\yy	.	4dyy 4A^</yy	.	4ayy 4f#^</yy	.	4ff#^>\yy	.	(y>4Ayy 4D\yy	(y>4ff#yy 4ayy 4f#/yy	.	4D\yy	.	.	4G/yy	.	.	4f#/yy	.	.	(y>4ff#\yy	quo-	.	przy-	.
!	!	!	!	!	!	!	!	!	!	!	!	!	!	!LO:HP:a	!	!	!LO:HP:a	!	!	!LO:HP:a	!	!	!	!	!
4GG/yy	4GG\yy	.	4dyy 4B/yy	.	4g/yy	.	8dd\Lyy	.	4Gyy 4GG/yy	8ddLyy 8b/yy	.	8G\yy	.	>	8B\yy	.	>	8g/yy	.	>	8dd\)yy	-ni-	.	.	.
!	!	!	!	!	!	!	!	!	!	!	!	!	!	!	!	!	!	!	!	!	!	!	!	!	!LO:HP:a
.	.	.	.	.	.	.	8b\Jyy	.	.	8bJyy 8g/yy	.	8G\yy	.	.	8d\yy	.	.	8g/yy	.	.	8b/yy	-am	.	-kład	>
(y>4AA/yy	4AA\yy	.	(y<4c#/yy	.	(y<4e/yy	.	4a/yy	.	4Ayy 4AA/yy	4ayy 4c#/yy	.	4A\yy	.	.	4c#\yy	.	.	4e/yy	.	.	4a/yy	mul-	.	po-	.
4BB/)yy	4BB\yy	.	4B/)yy	.	8d/Lyy	.	8f#/Lyy	.	8BB/)yy	8f#Lyy 8d/yy	.	8B\yy	.	.	8d\yy	.	.	8d/yy	.	]	8f#/yy	-ti-	.	-da	]
.	.	.	.	.	8B/J)yy	.	8d/Jyy	.	8ryy	16dJkyy 16B/)yy	.	8B\yy	.	]	8B\yy	.	]	8B/yy	.	.	8d/yy	-pli-	.	jak	.
.	.	.	.	.	.	.	.	.	.	16ryy	.	.	.	.	.	.	.	.	.	.	.	.	.	.	.
=46	=46	=46	=46	=46	=46	=46	=46	=46	=46	=46	=46	=46	=46	=46	=46	=46	=46	=46	=46	=46	=46	=46	=46	=46	=46
!	!	!	!	!LO:DY:b	!	!	!	!LO:DY:b	!	!	!	!	!	!LO:DY:a	!	!	!LO:DY:a	!	!	!LO:DY:a:rj	!	!	!	!	!LO:DY:a:rj
(y>4EE/yy	4EE\yy	.	(y<4E/yy	p	[y<2B/yy	.	(y<4g/yy	p	1r;>	1r;>	.	4E\yy	.	p	4B\yy	.	p	4B/yy	.	p	4g/yy	-ca-	.	ży-	p
4FF#/)yy	4FF#\yy	.	4F#/)yy	.	.	.	4f#/yy	.	.	.	.	4F#\yy	.	.	4B\yy	.	.	4B/yy	.	.	4f#/yy	-ti	.	-cie	.
!	!	!	!	!LO:HP:b:t=dimin	!	!LO:HP:b:t=dimin	!	!LO:HP:b:t=dimin	!	!	!	!	!	!	!	!	!	!	!	!	!	!	!	!	!
2GG;>/yy	2GG\yy	.	2G;>/yy	>	2B/]yy	>	2e;>/)yy	>	.	.	.	2G;>\yy	.	.	2B;>\yy	.	.	2B/yy	.	.	2e;>/yy	sunt.	.	wieść	.
*v	*v	*	*	*	*	*	*	*	*	*	*	*	*	*	*	*	*	*	*	*	*	*	*	*	*
=47	=47	=47	=47	=47	=47	=47	=47	=47	=47	=47	=47	=47	=47	=47	=47	=47	=47	=47	=47	=47	=47	=47	=47	=47
!	!	!	!	!	!	!	!	!	!LO:TX:t=P:problem:w tym systemie partia organów zapisana między altem a tenorem	!	!	!	!	!	!	!	!	!	!	!	!	!	!	!
!	!	!	!	!	!LO:DY:b	!	!LO:DY:b:t=pp.	!	!	!	!	!	!LO:DY:b:rj	!	!	!LO:DY:a:rj:t=pp.	!	!	!LO:DY:a:rj:t=pp.	!	!	!	!	!LO:DY:a:rj
1ryy	.	1ryy	.	(y<4b/yy	pp	(y<4b/yy	pp	[<1Byy [<1Gyy	2r	pp	4G\yy	.	pp	4B\yy	.	pp	4e/yy	.	pp	4b/yy	E-	.	przy-	pp
.	.	.	.	8g/Lyy	.	8g/Lyy	.	.	.	.	8G\yy	.	.	8B\yy	.	.	8B/yy	.	.	8g/yy	-ru-	.	-kład	.
.	.	.	.	8e/J)yy	.	8e/J)yy	.	.	.	.	8G\yy	.	.	8B\yy	.	.	8e/yy	.	.	8e/yy	-e	.	nam	.
.	.	.	.	2e/yy	.	2e/yy	.	.	[y<2e/yy	.	2G\yy	.	.	2B\yy	.	.	2e/yy	.	.	2e/yy	me!	.	da	.
=48	=48	=48	=48	=48	=48	=48	=48	=48	=48	=48	=48	=48	=48	=48	=48	=48	=48	=48	=48	=48	=48	=48	=48	=48
!	!	!	!	!	!	!	!	!	!	!	!	!	!	!	!	!	!	!	!	!LO:TX:a:i:t=un poco piu	!	!	!	!LO:DY:a
1r;>yy	.	1r;>yy	.	4dd\yy	.	(y>4dd\yy	.	1B]yy 1G;]yy	1e;]yy	.	4G\yy	.	.	4B\yy	.	.	4e/yy	.	.	4dd\yy	e-	.	jak	f
.	.	.	.	8cc#\Lyy	.	8cc#\Lyy	.	.	.	.	8G\yy	.	.	8B\yy	.	.	8e/yy	.	.	8cc#\yy	-ru-	.	ży-	.
.	.	.	.	8b\Jyy	.	8b\J)yy	.	.	.	.	8G\yy	.	.	8B\yy	.	.	8e/yy	.	.	8b\yy	-e	.	-cie	.
.	.	.	.	2b;>\yy	.	2b;>\yy	.	.	.	.	2G;>\yy	.	.	2B;>\yy	.	.	2e/yy	.	.	2b;>\yy	me!	.	wieść	.
=49	=49	=49	=49	=49	=49	=49	=49	=49	=49	=49	=49	=49	=49	=49	=49	=49	=49	=49	=49	=49	=49	=49	=49	=49
*^	*	*	*	*	*	*	*	*	*	*	*	*	*	*	*	*	*	*	*	*	*	*	*	*
!	!	!	!	!	!	!	!	!	!	!	!	!	!	!	!	!	!	!	!	!	!	!	!	!	!LO:DY:a:rj
4B/yy	[y<1F#yy	.	4B/yy	.	1ryy	.	1ryy	.	[>1F#yy [y<1FF#yy	4byy 4d/yy	.	[y>1F#yy	vi-	.	4B\yy	.	.	4d/yy	.	.	4b/yy	vi-	.	Zcze-	p
4c#/yy	.	.	4c#/yy	.	.	.	.	.	.	4f#yy 4e/yy	.	.	.	.	8c#\yy	.	.	8e/yy	.	.	8f#/yy	-de	.	-ścią	.
.	.	.	.	.	.	.	.	.	.	.	.	.	.	.	8c#\yy	.	.	8e/yy	.	.	8f#/yy	hu-	.	po-	.
4.d/yy	.	.	4.d/yy	.	.	.	.	.	.	[>2f#/yy	.	.	.	.	4.d\yy	.	.	4.f#/yy	.	.	4.f#/yy	-mi-	.	-wstań-	.
8c#/yy	.	.	8c#/yy	.	.	.	.	.	.	.	.	.	.	.	8c#\yy	.	.	8f#/yy	.	.	8f#/yy	-li-	.	-my	.
=50	=50	=50	=50	=50	=50	=50	=50	=50	=50	=50	=50	=50	=50	=50	=50	=50	=50	=50	=50	=50	=50	=50	=50	=50	=50
*	*	*	*	*	*	*	*	*	*	*^	*	*	*	*	*	*	*	*	*	*	*	*	*	*	*
4B/yy	1F#]yy	.	4B/yy	.	1ryy	.	1ryy	.	1F#]yy 1FF#]yy	[>4g#Xyy 4f#/]yy	2rcyy	.	2F#\>yy	.	.	4B\yy	.	.	4f#/yy	.	.	4.g#X/yy	-ta-	.	Zbaw-	.
4c#/yy	.	.	4c#/yy	.	.	.	.	.	.	4g#]yy 4e#X/yy	.	.	.	.	.	4c#\yy	.	.	4e#X/yy	.	.	.	.	.	.	.
.	.	.	.	.	.	.	.	.	.	.	.	.	.	.	.	.	.	.	.	.	.	8g#/yy	-tem	.	-ca	.
2F#/yy	.	.	2F#/yy	.	.	.	.	.	.	(y>4.a#X/yy	2enyy 2c#\yy	.	4.F#\]yy	.	.	4.F#/yy	.	.	4.en/yy	.	.	4.a#X/yy	me-	.	sam	.
.	.	.	.	.	.	.	.	.	.	8cc#/)yy	.	.	8F#\yy	-de	.	8F#/yy	.	.	8e/yy	.	.	8cc#\yy	-am	.	.	.
=51	=51	=51	=51	=51	=51	=51	=51	=51	=51	=51	=51	=51	=51	=51	=51	=51	=51	=51	=51	=51	=51	=51	=51	=51	=51	=51
!	!	!LO:HP:b	!	!LO:HP:b	!	!	!	!	!	!	!	!	!	!	!	!	!	!	!	!	!	!	!	!	!	!
4F#/yy	(y<2B\yy	<	4F#/yy	<	4ryy	.	4ryy	.	2BB/yy	(y>4cc#yy 4e/yy	2rcyy	.	4BB/yy	.	.	4F#/yy	.	.	4e/yy	.	.	4cc#\yy	vi-	ob-	.	.
8B/Lyy	.	.	8B/Lyy	.	2B^</yy	.	8ryy	.	.	8bLyy 8d/)yy	.	.	8BB/yy	.	.	8B\yy	.	.	8d/yy	.	.	8b\yy	-de	-ja-	.	.
!	!	!	!	!	!	!	!	!LO:DY:b	!	!	!	!	!	!	!	!	!	!	!	!	!	!	!	!	!	!
8d/Jyy	.	[	8d/Jyy	[	.	.	8f#/yy	p	.	[y8f#Jyy 8B/yy	.	.	8BB/yy	.	.	8d\yy	.	.	8B/yy	.	.	8f#/yy	la-	-wi	.	.
4f#/yy	4D\yy	.	4f#\yy	.	.	.	4a/yy	.	4Dyy 4DD/yy	4ayy 4f#/]yy	2B\yy	.	4D\yy	.	.	4f#\yy	.	.	4B/yy	.	.	4a/yy	-bo-	praw-	.	.
4B/yy	4E\)yy	.	4e\yy	.	4B/yy	.	4g/yy	.	4Eyy 4EE/yy	4gyy 4e/yy	.	.	8E\yy	.	.	8e\yy	.	.	8B/yy	.	.	8g/yy	-rem	-dy	.	.
.	.	.	.	.	.	.	.	.	.	.	.	.	8E\yy	.	.	8B\yy	.	.	8B/yy	.	.	8f#/yy	.	ży-	.	.
=52	=52	=52	=52	=52	=52	=52	=52	=52	=52	=52	=52	=52	=52	=52	=52	=52	=52	=52	=52	=52	=52	=52	=52	=52	=52	=52
1F#yy	1F#yy	.	(y>2d\yy	.	(y<2B/yy	.	[y>1f#yy	.	1F#yy 1FF#yy	[y>1f#yy	(y<2dyy 2B\yy	.	1F#yy	.	.	2d\yy	.	.	2B/yy	.	.	1f#yy	me-	-wo­ta	.	.
.	.	.	2A#X/)yy	.	2c#/yy	.	.	.	.	.	2c#yy 2A#X\yy	.	.	.	.	2A#X/yy	.	.	2c#/yy	.	.	.	.	.	.	.
=53	=53	=53	=53	=53	=53	=53	=53	=53	=53	=53	=53	=53	=53	=53	=53	=53	=53	=53	=53	=53	=53	=53	=53	=53	=53	=53
1BB;>yy	1BByy	.	1B;>yy	.	1d;>)yy	.	1f#;>]yy	.	1BByy 1BBB;>yy	1f#]yy	1dyy 1B;>)yy	.	1BB;>yy	.	.	1B;>yy	.	.	1d;>yy	.	.	1f#;>yy	-um.	nam.	.	.
*v	*v	*	*	*	*	*	*	*	*	*v	*v	*	*	*	*	*	*	*	*	*	*	*	*	*	*	*
==	==	==	==	==	==	==	==	==	==	==	==	==	==	==	==	==	==	==	==	==	==	==	==	==
*-	*-	*-	*-	*-	*-	*-	*-	*-	*-	*-	*-	*-	*-	*-	*-	*-	*-	*-	*-	*-	*-	*-	*-	*-
!!!RDF**kern: > = above
!!!RDF**kern: < = below
!!!system-decoration: [(g1){(s5,s6)}(g2)]
!!!EED: Antoni Szymański
!!!EST: 2021-07-23
!!!ENC: Mateusz Solarz
!!!END: 2021-07-19
